!!!!SEGMENT: pl-sa--50-a-i-50--001_luna-georgius--salve-fili-pulcherimme.krn
!!!cenid: 17xx:482
!!!COM: Luna, Georgius
!!!COM-rismid: pe41010079
!!!CDT:
!!!CNT:
!!!OTL: Salve fili pulcherimme
!!!PDT:
!!!AGN: Sacred
!!!SMS-siglum: PL-SA
!!!SMS-shelfmark: 50/A I 50
!!!SMS-shelfwork: 001 W
!!!SMS-variant:
!!!SMS-altvar:
!!!NIFC-rismid: 1001041148
!!!URL-scan: http://bc.bdsandomierz.pl/dlibra/publication/1298/edition/1266/content
!!!ONB-nifc:
!!!AIN: 1 cor 2 empty 2 flt 1 viola 2 violn 1 vox
!!!key:
**kern	**dynam	**kern	**kern	**dynam	**kern	**dynam	**kern	**text	**kern	**dynam	**kern	**dynam	**kern	**dynam	**kern	**dynam
*part9	*part9	*part8	*part7	*part7	*part6	*part6	*part5	*part5	*part4	*part4	*part3	*part3	*part2	*part2	*part1	*part1
*	*	*group3	*group3	*	*group3	*	*	*	*group2	*	*group2	*	*group1	*	*group1	*
*staff9	*	*staff8	*staff7	*	*staff6	*	*staff5	*staff5	*staff4	*	*staff3	*	*staff2	*	*staff1	*
*Iempty	*	*Iviola	*Ivioln	*	*Ivioln	*	*Ivox	*	*Icor	*	*Iempty	*	*Iflt	*	*Iflt	*
*I"Fundamento	*	*I"Viola	*I"Violino Secundo	*	*I"Violino Primo	*	*I"Canto	*	*I"Corno Secundo et G:	*	*I"Cornu Primo	*	*I"Flauto Secundo	*	*I"Flauto Primo	*
*I'b.c.	*	*I'vla	*I'vl II	*	*I'vl I	*	*I'C	*	*I'cor II	*	*I'cor I	*	*I'fl II	*	*I'fl I	*
*clefF4	*	*clefC3	*clefG2	*	*clefG2	*	*clefC1	*	*clefG2	*	*clefG2	*	*clefG2	*	*clefG2	*
*ITrd0c0	*	*	*	*	*	*	*	*	*ITrd3c5	*	*ITrd3c5	*	*	*	*	*
*k[f#]	*	*k[f#]	*k[f#]	*	*k[f#]	*	*k[f#]	*	*k[f#]	*	*k[f#]	*	*k[f#]	*	*k[f#]	*
*G:	*	*G:	*G:	*	*G:	*	*G:	*	*G:	*	*G:	*	*G:	*	*G:	*
*M3/8	*	*M3/8	*M3/8	*	*M3/8	*	*M3/8	*	*M3/8	*	*M3/8	*	*M3/8	*	*M3/8	*
=1	=1	=1	=1	=1	=1	=1	=1	=1	=1	=1	=1	=1	=1	=1	=1	=1
!LO:TX:a:t=P:problem=mixed beam	!	!LO:TX:a:t=P:problem=brak partii	!	!	!	!	!	!	!LO:TX:b:i:t=Salvete	!	!LO:TX:b:i:t=Salvete	!	!	!	!	!
!LO:TX:a:t=P:problem=all\right&colon; global	!	!	!	!	!	!	!	!	!	!	!	!	!	!	!	!
!LO:TX:a:i:t=Allo	!	!	!	!	!LO:TX:a:i:t=Allo&colon;	!	!LO:TX:a:i:t=Allo Aria 1ma Pastoralla	!	!LO:TX:a:i:t=Allo&colon;	!	!LO:TX:a:i:t=Allo.	!	!LO:TX:a:i:t=Allo	!	!LO:TX:a:i:t=Allo	!
!LO:TX:a:i:t=Pastorella	!	!	!LO:TX:a:i:t=Pastorellia	!	!LO:TX:a:i:t=Pastorellia	!	!LO:N:vis=00	!	!LO:TX:a:i:t=Pastorella Prÿma	!	!LO:TX:a:i:t=Pastorella	!	!LO:TX:a:i:t=Pasterellia	!	!LO:TX:a:i:t=Pastorellia	!
8GG/L	.	4.ryy	4.B/	.	4.g/	.	1.r	.	8r	.	8r	.	4.b\	.	4.gg\	.
!	!	!	!	!	!	!	!	!	!LO:TX:a:t=P:problem=all\right&colon; global	!	!LO:TX:a:t=P:problem=all\right&colon; global	!	!	!	!	!
8G\	.	.	.	.	.	.	.	.	8B/L	.	8g\L	.	.	.	.	.
8G\J	.	.	.	.	.	.	.	.	8B/J	.	8g\J	.	.	.	.	.
=2	=2	=2	=2	=2	=2	=2	=2	=2	=2	=2	=2	=2	=2	=2	=2	=2
!LO:TX:a:t=P:problem=mixed beam	!	!	!	!	!	!	!	!	!	!	!	!	!	!	!	!
8GG/L	.	4.ryy	4.g/	.	4.b\	.	.	.	8r	.	8r	.	4.gg\	.	4.bb\	.
8G\	.	.	.	.	.	.	.	.	8g\L	.	8b\L	.	.	.	.	.
8G\J	.	.	.	.	.	.	.	.	8g\J	.	8b\J	.	.	.	.	.
=3	=3	=3	=3	=3	=3	=3	=3	=3	=3	=3	=3	=3	=3	=3	=3	=3
!LO:TX:a:t=P:problem=mixed beam	!	!	!	!	!	!	!	!	!	!	!	!	!	!	!	!
8GG/L	.	4.ryy	8b/L	.	8dd\L	.	.	.	8b\L	.	8dd\L	.	8bb\L	.	8ddd\L	.
8G\	.	.	16b/L	.	(16dd\L	.	.	.	8b\	.	8dd\	.	(16bb\L	.	16ddd\L	.
.	.	.	16g/	.	16b\)	.	.	.	.	.	.	.	16gg\)	.	16bb\	.
8G\J	.	.	16a/	.	(16cc\	.	.	.	8cc\J	.	8ee\J	.	(16aa\	.	16ccc\	.
.	.	.	16cc/JJ	.	16ee\JJ)	.	.	.	.	.	.	.	16ccc\JJ)	.	16eee\JJ	.
=4	=4	=4	=4	=4	=4	=4	=4	=4	=4	=4	=4	=4	=4	=4	=4	=4
!LO:TX:a:t=P:problem=mixed beam	!	!	!	!	!	!	!	!	!	!	!	!	!	!	!	!
.	.	.	8qqcc/	.	8qqee/	.	.	.	8qqcc/	.	8qqee/	.	8qqccc/	.	8qqeee/	.
8GG/L	.	4.ryy	4.b\	.	4.dd\	.	.	.	4.b\	.	4.dd\	.	4.bb\	.	4.ddd\	.
*	*below	*	*	*	*	*	*	*	*	*	*	*	*	*	*	*
!	!LO:DY:t=p&colon;	!	!	!	!	!	!	!	!	!	!	!	!	!	!	!
8G\	p	.	.	.	.	.	.	.	.	.	.	.	.	.	.	.
!	!	!	!	!LO:DY:t=p&colon;	!	!	!	!	!	!LO:DY:t=p&colon;	!	!	!	!	!	!
8G\J	.	.	.	p	.	.	.	.	.	p	.	.	.	.	.	.
=5	=5	=5	=5	=5	=5	=5	=5	=5	=5	=5	=5	=5	=5	=5	=5	=5
!LO:TX:a:t=P:problem=mixed beam	!	!	!	!	!	!LO:DY:a:t=p	!LO:N:vis=00	!	!	!	!	!	!	!LO:DY:a:t=p	!	!LO:DY:a:rj:t=p
8GG/L	.	4.ryy	4.B/	.	4.g/	p	1.r	.	8r	.	8r	.	4.b\	p	4.gg\	p
!	!	!	!	!	!	!	!	!	!	!	!	!LO:DY:a:t=Pia	!	!	!	!
8G\	.	.	.	.	.	.	.	.	8B/L	.	8g\L	p	.	.	.	.
8G\J	.	.	.	.	.	.	.	.	8B/J	.	8g\J	.	.	.	.	.
=6	=6	=6	=6	=6	=6	=6	=6	=6	=6	=6	=6	=6	=6	=6	=6	=6
!LO:TX:a:t=P:problem=mixed beam	!	!	!	!	!	!	!	!	!	!	!	!	!	!	!	!
8GG/L	.	4.ryy	4.g/	.	4.b\	.	.	.	8r	.	8r	.	4.gg\	.	4.bb\	.
8G\	.	.	.	.	.	.	.	.	8g\L	.	8b\L	.	.	.	.	.
8G\J	.	.	.	.	.	.	.	.	8g\J	.	8b\J	.	.	.	.	.
=7	=7	=7	=7	=7	=7	=7	=7	=7	=7	=7	=7	=7	=7	=7	=7	=7
!LO:TX:a:t=P:problem=mixed beam	!	!	!	!	!	!	!	!	!	!	!	!	!	!	!	!
8GG/L	.	4.ryy	8b/L	.	8dd\L	.	.	.	8b\L	.	8dd\L	.	8bb\L	.	8ddd\L	.
8G\	.	.	16b/L	.	(16dd\L	.	.	.	8b\	.	8dd\	.	(16bb\L	.	16ddd\L	.
.	.	.	16g/	.	16b\)	.	.	.	.	.	.	.	16gg\)	.	16bb\	.
8G\J	.	.	16a/	.	(16cc\	.	.	.	8cc\J	.	8ee\J	.	(16aa\	.	16ccc\	.
.	.	.	16cc/JJ	.	16ee\JJ)	.	.	.	.	.	.	.	16ccc\JJ)	.	16eee\JJ	.
=8	=8	=8	=8	=8	=8	=8	=8	=8	=8	=8	=8	=8	=8	=8	=8	=8
.	.	.	8qqcc/	.	8qqee/	.	.	.	8qqcc/	.	8qqee/	.	8qqccc/	.	8qqeee/	.
!LO:TX:a:t=P:problem=mixed beam	!	!	!	!	!	!	!	!	!	!	!	!	!	!	!	!
8GG/L	.	4.ryy	4.b\	.	4.dd\	.	.	.	4.b\	.	4.dd\	.	4.bb\	.	4.ddd\	.
8G\	.	.	.	.	.	.	.	.	.	.	.	.	.	.	.	.
8G\J	.	.	.	.	.	.	.	.	.	.	.	.	.	.	.	.
=9	=9	=9	=9	=9	=9	=9	=9	=9	=9	=9	=9	=9	=9	=9	=9	=9
!	!LO:DY:rj:t=f&colon;	!	!	!LO:DY:a:t=f&colon;	!	!LO:DY:a:t=f	!LO:N:vis=00	!	!	!LO:DY:t=f&colon;	!	!LO:DY:a	!	!LO:DY:a:rj:t=f&colon;	!	!
4GG/	f	4.ryy	4d/	f	(16g/LL	f	1.r	.	8g\L	f	8b\L	f	8bb\L	f	16ggg\LL	.
.	.	.	.	.	16d/JJ)	.	.	.	.	.	.	.	.	.	16ddd\JJ	.
.	.	.	.	.	(16b/LL	.	.	.	8g\	.	8b\	.	8bb\	.	4ddd\	.
.	.	.	.	.	16d/JJ)	.	.	.	.	.	.	.	.	.	.	.
8D\	.	.	8f#/	.	((16a/LL	.	.	.	8d\J	.	8a\J	.	8aa\J	.	.	.
.	.	.	.	.	16d/JJ))	.	.	.	.	.	.	.	.	.	.	.
=10	=10	=10	=10	=10	=10	=10	=10	=10	=10	=10	=10	=10	=10	=10	=10	=10
4G\	.	4.ryy	4d/	.	16g/LL	.	.	.	8G/L	.	8b\L	.	8bb\L	.	16ggg\LL	.
.	.	.	.	.	16d/JJ	.	.	.	.	.	.	.	.	.	16ddd\JJ	.
.	.	.	.	.	16b/LL	.	.	.	8G/	.	8b\	.	8bb\	.	4ddd\	.
.	.	.	.	.	16d/JJ	.	.	.	.	.	.	.	.	.	.	.
8D\	.	.	8f#/	.	16a/LL	.	.	.	8d/J	.	8a\J	.	8aa\J	.	.	.
.	.	.	.	.	16d/JJ	.	.	.	.	.	.	.	.	.	.	.
=11	=11	=11	=11	=11	=11	=11	=11	=11	=11	=11	=11	=11	=11	=11	=11	=11
!LO:TX:a:t=P:problem=mixed beam	!	!	!	!	!	!	!	!	!	!	!	!	!	!	!	!
8GG/L	.	4.ryy	(16g/LL	.	(16b\LL	.	.	.	8g\L	.	8b\L	.	16gg\LL	.	16bb\LL	.
.	.	.	16b/)	.	16dd\)	.	.	.	.	.	.	.	16bb\	.	16ddd\	.
8G\	.	.	(16g/	.	(16b\	.	.	.	8g\J	.	8b\J	.	16gg\	.	16bb\	.
.	.	.	16B/)	.	16g\)	.	.	.	.	.	.	.	16b\	.	16gg\	.
8D'/J	.	.	(16c/	.	16a\	.	.	.	16B/LL	.	16a\LL	.	16cc\	.	16aa\	.
.	.	.	16A/JJ)	.	16f#\JJ	.	.	.	16B/JJ	.	16a\JJ	.	16a\JJ	.	16ff#\JJ	.
=12	=12	=12	=12	=12	=12	=12	=12	=12	=12	=12	=12	=12	=12	=12	=12	=12
.	.	.	.	.	8qqf#/	.	.	.	.	.	.	.	8qqa/	.	8qqff#/	.
4GG/	.	4.ryy	4B/	.	4g/	.	.	.	4B/	.	4g\	.	4b\	.	4gg\	.
!	!	!	!	!	!LO:TUP:a:problem=klamra łukowa, kropka zamiast numeru	!	!	!	!	!	!	!	!	!	!	!
8r	.	.	(16b\LL	.	24gg\LL	.	.	.	8r	.	8r	.	8r	.	8r	.
.	.	.	.	.	24ff#\	.	.	.	.	.	.	.	.	.	.	.
.	.	.	16cc\JJ)	.	.	.	.	.	.	.	.	.	.	.	.	.
.	.	.	.	.	24ee\JJ	.	.	.	.	.	.	.	.	.	.	.
=13	=13	=13	=13	=13	=13	=13	=13	=13	=13	=13	=13	=13	=13	=13	=13	=13
.	.	.	8qqcc/	.	8qqee/	.	.	.	.	.	.	.	8qqccc/	.	8qqeee/	.
!	!	!	!	!	!	!	!LO:N:vis=00	!	!	!	!	!	!	!	!	!
4GG/	.	4.ryy	8b\L	.	8dd\L	.	1.r	.	8b\L	.	8dd\L	.	8bb\L	.	8ddd\L	.
.	.	.	16b\L	.	16dd\L	.	.	.	16b\L	.	16dd\L	.	(16bb\L	.	16ddd\L	.
.	.	.	16g\	.	16b\	.	.	.	16g\	.	16b\	.	16gg\)	.	16bb\	.
8D\	.	.	16a\	.	16cc\	.	.	.	16a\	.	16cc\	.	(16aa\	.	16ccc\	.
.	.	.	16f#\JJ	.	16a\JJ	.	.	.	16d\JJ	.	16a\JJ	.	16ff#\JJ)	.	16aa\JJ	.
=14	=14	=14	=14	=14	=14	=14	=14	=14	=14	=14	=14	=14	=14	=14	=14	=14
.	.	.	8qqf#/	.	8qqa/	.	.	.	.	.	8qqa/	.	8qqff#/	.	8qqaa/	.
4G\	.	4.ryy	4g/	.	4b\	.	.	.	4g\	.	4b\	.	4gg\	.	4bb\	.
*	*	*	*	*	*Xtuplet	*	*	*	*	*	*	*	*	*	*	*
8r	.	.	(16b\LL	.	24gg\LL	.	.	.	8r	.	8r	.	8r	.	8r	.
.	.	.	.	.	24ff#\	.	.	.	.	.	.	.	.	.	.	.
.	.	.	16cc\JJ)	.	.	.	.	.	.	.	.	.	.	.	.	.
.	.	.	.	.	24ee\JJ	.	.	.	.	.	.	.	.	.	.	.
!	!	!	!	!	!	!	!	!	!	!	!	!	!	!	!LO:LB:g=original	!
=15	=15	=15	=15	=15	=15	=15	=15	=15	=15	=15	=15	=15	=15	=15	=15	=15
4GG/	.	4.ryy	8b\L	.	8dd\L	.	.	.	8b\L	.	8dd\L	.	8bb\L	.	8ddd\L	.
.	.	.	(16b\L	.	16dd\L	.	.	.	16b\L	.	16dd\L	.	(16bb\L	.	16ddd\L	.
.	.	.	16g\)	.	16b\	.	.	.	16g\	.	16b\	.	16gg\)	.	16bb\	.
8D/	.	.	(16a\	.	16cc\	.	.	.	16a\	.	16cc\	.	(16aa\	.	16ccc\	.
.	.	.	16f#\JJ)	.	16a\JJ	.	.	.	16d\JJ	.	16a\JJ	.	16ff#\JJ)	.	16aa\JJ	.
!LO:LB:g=original	!	!	!	!	!	!	!	!	!LO:LB:g=original	!	!	!	!	!	!	!
=16	=16	=16	=16	=16	=16	=16	=16	=16	=16	=16	=16	=16	=16	=16	=16	=16
.	.	.	8qqf#/	.	8qqa/	.	.	.	.	.	.	.	8qqff#/	.	8qqaa/	.
4G\	.	4.ryy	4g/	.	4b\	.	.	.	4g\	.	4b\	.	4gg\	.	4bb\	.
8r	.	.	(16B-X/LL	.	(16g/LL	.	.	.	8r	.	8r	.	(16gg\LL	.	(16bb-X\LL	.
.	.	.	16c/JJ)	.	16a/JJ)	.	.	.	.	.	.	.	16aa\JJ)	.	16ccc\JJ)	.
!	!	!	!LO:LB:g=original	!	!LO:LB:g=original	!	!	!	!	!	!	!	!	!	!	!
=17	=17	=17	=17	=17	=17	=17	=17	=17	=17	=17	=17	=17	=17	=17	=17	=17
!LO:TX:a:t=P:problem=mixed beam	!	!	!	!	!	!	!LO:N:vis=00	!	!	!	!	!	!	!	!	!
8GG/L	.	4.ryy	8d/L	.	8b-X/L	.	1.r	.	(8G'/L	.	8g\L	.	8bb-X\L	.	8ddd\L	.
8G\	.	.	8d/J	.	8b-/J	.	.	.	8G'/	.	8g\	.	8bb-\J	.	8ddd\J	.
8GG/J	.	.	(16d/LL	.	(16b-/LL	.	.	.	8G'/J)	.	8g\J	.	16bb-\LL	.	(16ddd\LL	.
.	.	.	16c/JJ)	.	16a/JJ)	.	.	.	.	.	.	.	16aa\JJ	.	16ccc\JJ)	.
!	!	!	!	!	!	!	!	!	!	!	!LO:LB:g=original	!	!LO:LB:g=original	!	!	!
=18	=18	=18	=18	=18	=18	=18	=18	=18	=18	=18	=18	=18	=18	=18	=18	=18
!LO:TX:a:t=P:problem=mixed beam	!	!	!	!	!	!	!	!	!	!	!	!	!	!	!	!
8GG/L	.	4.ryy	8B-X/L	.	8g/L	.	.	.	(8G'/L	.	8g\L	.	8gg\L	.	8bb-X\L	.
8G\	.	.	8B-/J	.	8g/J	.	.	.	8G'/	.	8g\	.	8gg\J	.	8bb-\J	.
8GG/J	.	.	(16B-/LL	.	(16g/LL	.	.	.	8G'/J)	.	8g\J	.	(16gg\LL	.	(16bb-\LL	.
.	.	.	16c/JJ)	.	16a/JJ)	.	.	.	.	.	.	.	16aa\JJ)	.	16ccc\JJ)	.
=19	=19	=19	=19	=19	=19	=19	=19	=19	=19	=19	=19	=19	=19	=19	=19	=19
!LO:TX:a:t=P:problem=mixed beam	!	!	!	!	!	!	!	!	!	!	!	!	!	!	!	!
8GG/L	.	4.ryy	8d/L	.	8b-X/L	.	.	.	(8G'/L	.	8g\L	.	8bb-X\L	.	8ddd\L	.
8G\	.	.	16d/L	.	16b-/L	.	.	.	8G'/	.	8g\	.	16bb-\L	.	16ddd\L	.
.	.	.	16c/	.	16a/	.	.	.	.	.	.	.	16aa\	.	16bb\	.
!	!	!	!	!	!	!	!	!	!LO:TX:a:t=P:problem=poprawiona nuta	!	!	!	!	!	!	!
!	!	!	!	!	!	!	!	!	!LO:TX:a:t=g	!	!	!	!	!	!	!
8D/J	.	.	16B-X/	.	16g/	.	.	.	8B'/J)	.	8a\J	.	16gg\	.	16bb-X\	.
.	.	.	16A/JJ	.	16f#/JJ	.	.	.	.	.	.	.	16ff#\JJ	.	16aa\JJ	.
=20	=20	=20	=20	=20	=20	=20	=20	=20	=20	=20	=20	=20	=20	=20	=20	=20
!LO:TX:a:t=P:problem=mixed beam	!	!	!	!	!	!	!	!	!	!	!	!	!	!	!	!
.	.	.	8qqA/	.	8qqf#/	.	.	.	.	.	.	.	8qqff#/	.	8qqaa/	.
8GG/L	.	4.ryy	4B-X/	.	4g/	.	.	.	(8G'/L	.	8g\L	.	4gg\	.	4bb\	.
8G\	.	.	.	.	.	.	.	.	8G'/	.	8g\	.	.	.	.	.
8GG/J	.	.	(16B-/LL	.	(16g/LL	.	.	.	8G'/J)	.	8g\J	.	(16gg\LL	.	16bb\LL	.
.	.	.	16c/JJ)	.	16a/JJ)	.	.	.	.	.	.	.	16aa\JJ)	.	16ccc\JJ	.
=21	=21	=21	=21	=21	=21	=21	=21	=21	=21	=21	=21	=21	=21	=21	=21	=21
!LO:TX:a:t=P:problem=mixed beam	!	!	!	!	!	!	!LO:N:vis=00	!	!	!	!	!	!	!	!	!
8GG/L	.	4.ryy	8d/L	.	8b-X/L	.	1.r	.	(8G'/L	.	8g\L	.	8bb-X\L	.	8ddd\L	.
8G\	.	.	8d/J	.	8b-/J	.	.	.	8G'/	.	8g\	.	8bb-\J	.	8ddd\J	.
8GG/J	.	.	(16d/LL	.	16b-/LL	.	.	.	8G'/J)	.	8g\J	.	16bb-\LL	.	16ddd\LL	.
.	.	.	16c/JJ)	.	16a/JJ	.	.	.	.	.	.	.	16aa\JJ	.	16ccc\JJ	.
=22	=22	=22	=22	=22	=22	=22	=22	=22	=22	=22	=22	=22	=22	=22	=22	=22
!LO:TX:a:t=P:problem=mixed beam	!	!	!	!	!	!	!	!	!	!	!	!	!	!	!	!
8GG/L	.	4.ryy	8B-X/L	.	8g/L	.	.	.	(8G'/L	.	8g\L	.	8gg\L	.	8bb-X\L	.
8G\J	.	.	8B-/J	.	8g/J	.	.	.	8G'/	.	8g\	.	8gg\J	.	8bb-\J	.
16G\LL	.	.	(16g/LL	.	16g/LL	.	.	.	8G'/J)	.	8g\J	.	16gg\LL	.	16gg\LL	.
16A\JJ	.	.	16a/JJ)	.	16a/JJ	.	.	.	.	.	.	.	16aa\JJ	.	16aa\JJ	.
=23	=23	=23	=23	=23	=23	=23	=23	=23	=23	=23	=23	=23	=23	=23	=23	=23
8B-X\L	.	4.ryy	8b-X/L	.	8b-X/L	.	.	.	(8G'/L	.	8g\L	.	8bb-X\L	.	8bb-X\L	.
16G\L	.	.	16g/L	.	16g/L	.	.	.	8G'/	.	8g\	.	16gg\L	.	16gg\L	.
16A\	.	.	16a/	.	16a/	.	.	.	.	.	.	.	16aa\	.	16aa\	.
16B-X\	.	.	16b-/	.	16b-/	.	.	.	8G'/J)	.	8g\J	.	16bb-\	.	16bb-\	.
16c#X\JJ	.	.	16cc#X/JJ	.	16cc#X/JJ	.	.	.	.	.	.	.	16ccc#X\JJ	.	16ccc#X\JJ	.
=24	=24	=24	=24	=24	=24	=24	=24	=24	=24	=24	=24	=24	=24	=24	=24	=24
!	!	!	!LO:SIC:v:s=8qcc#	!	!LO:SIC:v:s=8qcc#	!	!	!	!	!	!	!	!LO:SIC:v:s=8qccc#	!	!LO:SIC:v:s=8qccc#	!
.	.	.	8qqcc/	.	8qqcc/	.	.	.	.	.	.	.	8qqccc/	.	8qqccc/	.
4d\	.	4.ryy	4dd\	.	4dd\	.	.	.	4d/	.	4a\	.	4ddd\	.	4ddd\	.
8G\	.	.	(16bn\LL	.	(16gg\LL	.	.	.	8cc\	.	8ee\	.	(16b\LL	.	16gg\LL	.
.	.	.	16ccn\JJ)	.	16ee\JJ)	.	.	.	.	.	.	.	16cc\JJ)	.	16ee\JJ	.
=25	=25	=25	=25	=25	=25	=25	=25	=25	=25	=25	=25	=25	=25	=25	=25	=25
.	.	.	8qqcc/	.	8qqee/	.	.	.	.	.	.	.	.	.	.	.
!	!	!	!	!	!	!	!LO:N:vis=00	!	!	!	!	!	!	!	!	!
8G\L	.	4.ryy	8b\L	.	8dd\L	.	1.r	.	8b\L	.	8dd\L	.	8b\L	.	8dd\L	.
8G\	.	.	8b\J	.	8dd\J	.	.	.	8b\	.	8dd\	.	8b\J	.	8dd\J	.
8G\J	.	.	(16b\LL	.	(16gg\LL	.	.	.	8cc\J	.	8ee\J	.	(16b\LL	.	(16gg\LL	.
.	.	.	16cc\JJ)	.	16ee\JJ)	.	.	.	.	.	.	.	16cc\JJ)	.	16ee\JJ)	.
=26	=26	=26	=26	=26	=26	=26	=26	=26	=26	=26	=26	=26	=26	=26	=26	=26
8G\L	.	4.ryy	8b\L	.	8dd\L	.	.	.	8b\L	.	8dd\L	.	8b\L	.	8dd\L	.
8G\	.	.	8b\J	.	8dd\J	.	.	.	8b\	.	8dd\	.	8b\J	.	8dd\J	.
8G\J	.	.	(16cc\LL	.	(16ee\LL	.	.	.	8a\J	.	8cc\J	.	(16cc\LL	.	(16ee\LL	.
.	.	.	16a\JJ)	.	16cc\JJ)	.	.	.	.	.	.	.	16a\JJ)	.	16cc\JJ)	.
!	!	!	!	!	!	!	!	!	!	!	!	!	!	!	!LO:LB:g=original	!
=27	=27	=27	=27	=27	=27	=27	=27	=27	=27	=27	=27	=27	=27	=27	=27	=27
8D/L	.	4.ryy	8d/L	.	8b\L	.	.	.	8g\L	.	8b\L	.	8dd\L	.	8b\L	.
8D/	.	.	8d/J	.	8b\J	.	.	.	8g\J	.	8b\J	.	8dd\J	.	8b\J	.
8D/J	.	.	(16e/LL	.	(16cc\LL	.	.	.	16d/LL	.	16a\LL	.	(16ee\LL	.	(16cc\LL	.
.	.	.	16c/JJ)	.	16a\JJ)	.	.	.	16d/JJ	.	16a\JJ	.	16cc\JJ)	.	16a\JJ)	.
=28	=28	=28	=28	=28	=28	=28	=28	=28	=28	=28	=28	=28	=28	=28	=28	=28
!	!	!	!&colon;global	!	!	!	!	!	!	!	!	!	!	!	!	!LO:DY:a:t=p
.	.	.	8qqc/	.	8qqa/	.	.	.	.	.	.	.	8qqcc/	.	8qqa/	p
!	!	!	!	!	!	!	!	!	!	!	!	!LO:DY:a:t=Pia	!	!LO:DY:a:t=p	!	!
8BB/L	.	4.ryy	4B/	p	4g/	.	.	.	4B/	.	4g\	p	4b\	p	4g/	.
!LO:TX:b:t=P:problem=coś jest napisane, jakby "p f"	!	!	!	!	!	!LO:DY:t=p	!	!	!	!	!	!	!	!	!	!
8BB/	.	.	.	.	.	p	.	.	.	.	.	.	.	.	.	.
8BB/J	.	.	(16b\LL	.	(16gg\LL	.	.	.	8cc\	.	8ee\	.	16b\LL	.	(16gg\LL	.
.	.	.	16cc\JJ)	.	16ee\JJ)	.	.	.	.	.	.	.	16cc\JJ	.	16ee\JJ)	.
!LO:LB:g=original	!	!	!LO:LB:g=original	!	!	!	!	!	!	!	!	!	!	!	!	!
=29	=29	=29	=29	=29	=29	=29	=29	=29	=29	=29	=29	=29	=29	=29	=29	=29
.	.	.	8qqcc/	.	8qqee/	.	.	.	.	.	.	.	.	.	8qqee/	.
!	!	!	!	!	!	!	!LO:N:vis=00	!	!	!LO:DY:t=p&colon;	!	!	!	!	!	!
8GG/L	.	4.ryy	8b\L	.	8dd\L	.	1.r	.	8b\L	p	8dd\L	.	8b\L	.	8dd\L	.
8GG/	.	.	8b\J	.	8dd\J	.	.	.	8b\	.	8dd\	.	8b\J	.	8dd\J	.
8GG/J	.	.	(16b\LL	.	16gg\LL	.	.	.	8cc\J	.	8ee\J	.	(16b\LL	.	(16gg\LL	.
.	.	.	16cc\JJ)	.	16ee\JJ	.	.	.	.	.	.	.	16cc\JJ)	.	16ee\JJ)	.
=30	=30	=30	=30	=30	=30	=30	=30	=30	=30	=30	=30	=30	=30	=30	=30	=30
8GG/L	.	4.ryy	8b\L	.	8dd\L	.	.	.	8b\L	.	8dd\L	.	8b\L	.	8dd\L	.
8GG/	.	.	8b\J	.	8dd\J	.	.	.	8b\	.	8dd\	.	8b\J	.	8dd\J	.
8BB/J	.	.	(16cc\LL	.	(16ee\LL	.	.	.	8a\J	.	8cc\J	.	(16cc\LL	.	(16ee\LL	.
.	.	.	16a\JJ)	.	16cc\JJ)	.	.	.	.	.	.	.	16a\JJ)	.	16cc\JJ)	.
!	!	!	!	!	!LO:LB:g=original	!	!	!	!	!	!	!	!	!	!	!
=31	=31	=31	=31	=31	=31	=31	=31	=31	=31	=31	=31	=31	=31	=31	=31	=31
8D/L	.	4.ryy	8d/L	.	8b\L	.	.	.	8g\L	.	8b\L	.	8dd\L	.	8b\L	.
8D/	.	.	8d/J	.	8b\J	.	.	.	8g\J	.	8b\J	.	8dd\J	.	8b\J	.
!	!	!	!	!	!	!	!	!	!LO:LB:g=original	!	!	!	!	!	!	!
8D/J	.	.	(16e/LL	.	(16cc\LL	.	.	.	16d/LL	.	16a\LL	.	(16ee\LL	.	(16cc\LL	.
.	.	.	16c/JJ)	.	16a\JJ)	.	.	.	16d/JJ	.	16a\JJ	.	16cc\JJ)	.	16a\JJ)	.
=32	=32	=32	=32	=32	=32	=32	=32	=32	=32	=32	=32	=32	=32	=32	=32	=32
.	.	.	8qqc/	.	8qqa/	.	.	.	.	.	.	.	8qqcc/	.	8qqa/	.
!	!	!	!	!	!	!	!	!	!	!LO:DY:t=f&colon;	!	!LO:DY:a	!	!	!	!LO:DY:a:t=f
8GG/L	.	4.ryy	4B/	.	4g/	.	.	.	8B/L	f	8g\L	f	4b\	.	4g/	f
!	!	!	!	!LO:DY:t=f&colon;	!	!	!	!	!	!	!	!	!	!	!	!
8GG/	.	.	.	f	.	.	.	.	8G/	.	8g\	.	.	.	.	.
!	!	!	!	!	!	!LO:DY:a:t=f&colon;	!	!	!	!	!	!	!	!LO:DY:a:t=f	!	!
8GG/J	.	.	(16d/LL	.	(16b/LL	f	.	.	8G/J	.	8g\J	.	16dd\LL	f	16bb\LL	.
.	.	.	16A/JJ)	.	16f#/JJ)	.	.	.	.	.	.	.	16a\JJ	.	16ff#\JJ	.
!	!	!	!	!	!	!	!	!	!	!	!	!	!LO:LB:g=original	!	!	!
=33	=33	=33	=33	=33	=33	=33	=33	=33	=33	=33	=33	=33	=33	=33	=33	=33
!	!	!	!	!	!	!	!LO:N:vis=00	!	!	!	!	!	!	!	!	!
8GG/L	.	4.ryy	4B/	.	4g/	.	1.r	.	8G/L	.	8g\L	.	4b\	.	4gg\	.
8GG/	.	.	.	.	.	.	.	.	8G/	.	8g\	.	.	.	.	.
8GG/J	.	.	(16g/LL	.	(16b/LL	.	.	.	8G/J	.	8g\J	.	(16gg\LL	.	16bb\LL	.
.	.	.	16b/JJ)	.	16dd/JJ)	.	.	.	.	.	.	.	16bb\JJ)	.	16ddd\JJ	.
=34	=34	=34	=34	=34	=34	=34	=34	=34	=34	=34	=34	=34	=34	=34	=34	=34
.	.	.	8qqb/	.	8qqdd/	.	.	.	.	.	.	.	8qqbb/	.	8qqddd/	.
8D\L	.	4.ryy	4a/	.	4cc\	.	.	.	8d/L	.	8a\L	.	4aa\	.	4ccc\	.
8D\	.	.	.	.	.	.	.	.	8d/	.	8a\	.	.	.	.	.
8D\J	.	.	16c/LL	.	(16a/LL	.	.	.	8d/J	.	8a\J	.	(16cc\LL	.	16aa\LL	.
.	.	.	16A/JJ	.	16f#/JJ)	.	.	.	.	.	.	.	16a\JJ)	.	16ff#\JJ	.
=35	=35	=35	=35	=35	=35	=35	=35	=35	=35	=35	=35	=35	=35	=35	=35	=35
!	!	!	!	!	!	!	!	!	!LO:TX:a:t=P:problem=mixed beam	!	!	!	!	!	!	!
8G\L	.	4.ryy	8B/L	.	8g/L	.	.	.	8B/L	.	8g\L	.	8b\L	.	8gg\L	.
16D\L	.	.	16d/L	.	16d/L	.	.	.	8g\	.	8b\	.	16dd\L	.	16dd\L	.
16C\	.	.	16c/	.	16c/	.	.	.	.	.	.	.	16cc\	.	16cc\	.
16BB\	.	.	16B/	.	16B/	.	.	.	8g\J	.	8b\J	.	16b\	.	16b\	.
16AA\JJ	.	.	16A/JJ	.	16A/JJ	.	.	.	.	.	.	.	16a\JJ	.	16a\JJ	.
=36	=36	=36	=36	=36	=36	=36	=36	=36	=36	=36	=36	=36	=36	=36	=36	=36
4GG/	.	4.ryy	4G/	.	4G/	.	.	.	4g\	.	4b\	.	4g/	.	4g/	.
8r	.	.	8r	.	8r	.	.	.	8r	.	8r	.	8r	.	8r	.
!LO:TX:a:t=[segno]:problem=znak segno na kresce taktowej, kreska podwójna	!	!	!LO:TX:a:t=[segno]:problem=znak segno na kresce taktowej	!	!LO:TX:a:t=[segno]:problem=znak segno na kresce taktowej, kreska podwójna	!	!LO:TX:a:t=[segno]:problem=znak segno na kresce taktowej	!	!LO:TX:a:t=[segno]:problem=znak segno na kresce taktowej	!	!LO:TX:a:t=[segno]:problem=znak segno na kresce taktowej, kreska podwójna	!	!LO:TX:a:t=[segno]:problem=znak segno na kresce taktowej	!	!LO:TX:a:t=[segno]:problem=znak segno na kresce taktowej	!
!	!	!	!	!	!	!	!	!	!	!	!LO:LB:g=original	!	!	!	!	!
=37	=37	=37	=37	=37	=37	=37	=37	=37	=37	=37	=37	=37	=37	=37	=37	=37
!LO:TX:a:t=P:problem=mixed beam	!	!	!	!LO:DY:a	!	!LO:DY:a:t=Pia	!	!LO:N:vis=0	!	!	!LO:N:vis=0	!	!LO:N:vis=0	!LO:DY:t=p	!LO:N:vis=0	!
8GG/L	.	4.ryy	4.B/	p	4.g/	p	4.g\	Sal-	2.r	.	2.r	.	2.r	.	2.r	p
8G\	.	.	.	.	.	.	.	.	.	.	.	.	.	.	.	.
8G\J	.	.	.	.	.	.	.	.	.	.	.	.	.	.	.	.
=38	=38	=38	=38	=38	=38	=38	=38	=38	=38	=38	=38	=38	=38	=38	=38	=38
!LO:TX:a:t=P:problem=mixed beam	!	!	!	!	!	!	!	!	!	!	!	!	!	!	!	!
8GG/L	.	4.ryy	4.g/	.	4.b\	.	4.b\	-ve	.	.	.	.	.	.	.	.
8G\	.	.	.	.	.	.	.	.	.	.	.	.	.	.	.	.
8G\J	.	.	.	.	.	.	.	.	.	.	.	.	.	.	.	.
=39	=39	=39	=39	=39	=39	=39	=39	=39	=39	=39	=39	=39	=39	=39	=39	=39
!LO:TX:a:t=P:problem=mixed beam	!	!	!	!	!	!	!	!	!	!	!	!	!	!	!	!
.	.	.	.	.	.	.	8qqcc/	.	.	.	.	.	.	.	.	.
!	!	!	!	!	!	!	!	!	!	!	!	!	!	!LO:DY:a:rj:t=Pia	!	!
8GG/L	.	4.ryy	8b/L	.	8dd\L	.	8dd\	Fi-	4.r	.	4.r	.	8bb\L	p	8ddd\L	.
8G\	.	.	(16b/L	.	(16dd\L	.	16dd\	-li	.	.	.	.	16bb\L	.	16ddd\L	.
.	.	.	16g/)	.	16b\)	.	16b\	pul-	.	.	.	.	16gg\	.	16bb\	.
8G\J	.	.	(16a/	.	(16cc\	.	16cc\LL	-che-	.	.	.	.	16aa\	.	16ccc\	.
.	.	.	16cc/JJ)	.	16ee\JJ)	.	16ee\JJ	-ri-	.	.	.	.	16ccc\JJ	.	16eee\JJ	.
=40	=40	=40	=40	=40	=40	=40	=40	=40	=40	=40	=40	=40	=40	=40	=40	=40
!LO:TX:a:t=P:problem=mixed beam	!	!	!	!	!	!	!	!	!	!	!	!	!	!	!	!
.	.	.	8qqcc/	.	8qqee/	.	8qqee/	.	.	.	.	.	8qqccc/	.	8qqeee/	.
8GG/L	.	4.ryy	4.b\	.	4.dd\	.	4dd\	-me	8r	.	8r	.	4.bb\	.	4.ddd\	.
8G\	.	.	.	.	.	.	.	.	16b\LL	.	16dd\LL	.	.	.	.	.
.	.	.	.	.	.	.	.	.	16b\J	.	16dd\J	.	.	.	.	.
8G\J	.	.	.	.	.	.	8r	.	8b\J	.	8dd\J	.	.	.	.	.
=41	=41	=41	=41	=41	=41	=41	=41	=41	=41	=41	=41	=41	=41	=41	=41	=41
!LO:TX:a:t=P:problem=mixed beam	!	!	!	!	!	!	!	!	!LO:TX:a:t=P:problem=takty 41-44 zapisane repetycją	!	!	!	!	!	!	!
!	!	!	!	!	!	!	!	!	!LO:N:vis=0	!	!LO:N:vis=0	!	!LO:N:vis=0	!	!LO:N:vis=0	!
8GG/L	.	4.ryy	4.B/	.	4.g/	.	4.g\	Sal-	2.ryy	.	2.r	.	2.r	.	2.r	.
8G\	.	.	.	.	.	.	.	.	.	.	.	.	.	.	.	.
8G\J	.	.	.	.	.	.	.	.	.	.	.	.	.	.	.	.
=42	=42	=42	=42	=42	=42	=42	=42	=42	=42	=42	=42	=42	=42	=42	=42	=42
!LO:TX:a:t=P:problem=mixed beam	!	!	!	!	!	!	!	!	!	!	!	!	!	!	!	!
.	.	.	.	.	.	.	8qqa/	.	.	.	.	.	.	.	.	.
8GG/L	.	4.ryy	4.g/	.	4.b\	.	4.b\	-ve	.	.	.	.	.	.	.	.
8G\	.	.	.	.	.	.	.	.	.	.	.	.	.	.	.	.
8G\J	.	.	.	.	.	.	.	.	.	.	.	.	.	.	.	.
!LO:LB:g=original	!	!	!	!	!	!	!	!	!	!	!	!	!	!	!LO:LB:g=original	!
=43	=43	=43	=43	=43	=43	=43	=43	=43	=43	=43	=43	=43	=43	=43	=43	=43
!LO:TX:a:t=P:problem=mixed beam	!	!	!	!	!	!	!	!	!	!	!	!	!	!	!	!
.	.	.	.	.	.	.	8qqcc/	.	.	.	.	.	.	.	.	.
8GG/L	.	4.ryy	8b/L	.	8dd\L	.	8dd\	Je-	4.ryy	.	4.r	.	8bb\L	.	8ddd\L	.
8G\	.	.	(16b/L	.	(16dd\L	.	16dd\	-su	.	.	.	.	16bb\L	.	16ddd\L	.
.	.	.	16g/)	.	16b\)	.	16b\	dul-	.	.	.	.	16gg\	.	16bb\	.
8G\J	.	.	(16a/	.	(16cc\	.	16cc\	-ciſ-	.	.	.	.	16aa\	.	16ccc\	.
.	.	.	16cc/JJ)	.	16ee\JJ)	.	16ee\	-si-	.	.	.	.	16ccc\JJ	.	16eee\JJ	.
!	!	!	!LO:LB:g=original	!	!	!	!	!	!	!	!	!	!	!	!	!
=44	=44	=44	=44	=44	=44	=44	=44	=44	=44	=44	=44	=44	=44	=44	=44	=44
!LO:TX:a:t=P:problem=mixed beam	!	!	!	!	!	!	!	!	!	!	!	!	!	!	!	!
.	.	.	8qqcc/	.	8qqee/	.	8qqee/	.	.	.	.	.	8qqccc/	.	8qqeee/	.
8GG/L	.	4.ryy	4.b\	.	4.dd\	.	4.dd\	-me	8ryy	.	8r	.	4.bb\	.	4.ddd\	.
8G\	.	.	.	.	.	.	.	.	16b\LLyy	.	16dd\LL	.	.	.	.	.
.	.	.	.	.	.	.	.	.	16b\Jyy	.	16dd\J	.	.	.	.	.
8G\J	.	.	.	.	.	.	.	.	8b\Jyy	.	8dd\J	.	.	.	.	.
!	!	!	!	!	!	!	!LO:LB:g=original	!	!	!	!	!	!	!	!	!
=45	=45	=45	=45	=45	=45	=45	=45	=45	=45	=45	=45	=45	=45	=45	=45	=45
!	!	!	!	!	!	!	!	!	!	!LO:DY:t=p&colon;	!	!LO:DY:a:t=Pia&colon;	!LO:N:vis=00	!	!LO:N:vis=00	!
4GG/	.	4.ryy	4d/	.	(16g/LL	.	8g\	Li-	8g\L	p	8b\L	p	1.r	.	1.r	.
.	.	.	.	.	16d/)	.	.	.	.	.	.	.	.	.	.	.
.	.	.	.	.	(16b/	.	16b\LL	.	8g\	.	8b\	.	.	.	.	.
.	.	.	.	.	16d/)	.	16g\	-li-	.	.	.	.	.	.	.	.
8D\	.	.	8f#/	.	(16a/	.	16a\	.	8d\J	.	8a\J	.	.	.	.	.
.	.	.	.	.	16d/JJ)	.	16f#X\JJ	.	.	.	.	.	.	.	.	.
=46	=46	=46	=46	=46	=46	=46	=46	=46	=46	=46	=46	=46	=46	=46	=46	=46
4G\	.	4.ryy	4d/	.	(16g/LL	.	4g\	-o	8g\L	.	8b\L	.	.	.	.	.
.	.	.	.	.	16d/)	.	.	.	.	.	.	.	.	.	.	.
.	.	.	.	.	(16b/	.	.	.	8g\	.	8b\	.	.	.	.	.
.	.	.	.	.	16d/)	.	.	.	.	.	.	.	.	.	.	.
8D\	.	.	8f#/	.	(16a/	.	8r	.	8d\J	.	8a\J	.	.	.	.	.
.	.	.	.	.	16d/JJ)	.	.	.	.	.	.	.	.	.	.	.
!	!	!	!	!	!LO:LB:g=original	!	!	!	!	!	!	!	!	!	!	!
=47	=47	=47	=47	=47	=47	=47	=47	=47	=47	=47	=47	=47	=47	=47	=47	=47
!LO:TX:a:t=P:problem=mixed beam	!	!	!	!	!	!	!	!	!	!	!	!	!	!	!	!
8GG/L	.	4.ryy	(16g/LL	.	16b\LL	.	8b\	di-	8g\L	.	8b\L	.	.	.	.	.
.	.	.	16b/)	.	16dd\	.	.	.	.	.	.	.	.	.	.	.
8G\	.	.	(16g/	.	16b\	.	16dd\	-lec-	8g\J	.	8b\J	.	.	.	.	.
.	.	.	16B/)	.	16g\	.	16b\	-te	.	.	.	.	.	.	.	.
8D/J	.	.	(16c/	.	16a\	.	16cc\LL	fi-	16d/LL	.	16a\LL	.	.	.	.	.
.	.	.	16A/JJ)	.	16f#\JJ	.	16a\JJ	.	16d/JJ	.	16a\JJ	.	.	.	.	.
=48	=48	=48	=48	=48	=48	=48	=48	=48	=48	=48	=48	=48	=48	=48	=48	=48
.	.	.	.	.	8qqf#/	.	.	.	.	.	.	.	.	.	.	.
4GG/	.	4.ryy	4B/	.	4g/	.	8b\	-li	4B/	.	4g\	.	.	.	.	.
.	.	.	.	.	.	.	8r	.	.	.	.	.	.	.	.	.
*	*	*	*	*	*tuplet	*	*	*	*	*	*	*	*	*	*	*
!	!	!	!	!	!LO:TUP:a:problem=klamra łukowa, kropka zamiast numeru	!	!	!	!	!	!	!	!	!	!	!
8r	.	.	(16b\LL	.	24gg\LL	.	16gg\	Li-	8r	.	8r	.	.	.	.	.
.	.	.	.	.	24ff#\	.	.	.	.	.	.	.	.	.	.	.
.	.	.	16cc\JJ)	.	.	.	16ee\	-li-	.	.	.	.	.	.	.	.
!LO:TX:a:t=P:problem=po tym takcie skreślony takt	!	!	!	!	!	!	!	!	!	!	!	!	!	!	!	!
.	.	.	.	.	24ee\JJ	.	.	.	.	.	.	.	.	.	.	.
=49	=49	=49	=49	=49	=49	=49	=49	=49	=49	=49	=49	=49	=49	=49	=49	=49
.	.	.	8qqcc/	.	8qqee/	.	.	.	.	.	.	.	.	.	.	.
!	!	!	!	!	!	!	!	!	!LO:N:vis=00	!	!LO:N:vis=00	!	!	!	!	!
4GG/	.	4.ryy	8b\L	.	8dd\L	.	8dd\	-o	1.r	.	1.r	.	8bb\L	.	8ddd\L	.
.	.	.	16b\L	.	(16dd\L	.	16dd\	Li-	.	.	.	.	(16bb\L	.	16ddd\L	.
.	.	.	16g\	.	16b\)	.	16b\	-li-	.	.	.	.	16gg\)	.	16bb\	.
8D\	.	.	16a\	.	(16cc\	.	(16ee\LL	.	.	.	.	.	(16aa\	.	16ccc\	.
.	.	.	16f#\JJ	.	16a\JJ)	.	16cc\JJ)	.	.	.	.	.	16ff#\JJ)	.	16aa\JJ	.
=50	=50	=50	=50	=50	=50	=50	=50	=50	=50	=50	=50	=50	=50	=50	=50	=50
.	.	.	8qqf#/	.	8qqa/	.	.	.	.	.	.	.	8qqff#/	.	.	.
4G\	.	4.ryy	4g/	.	4b\	.	4dd\	-o	.	.	.	.	4gg\	.	4bb\	.
*	*	*	*	*	*Xtuplet	*	*	*	*	*	*	*	*	*	*	*
8r	.	.	(16b\LL	.	24gg\LL	.	16gg\	di-	.	.	.	.	8r	.	8r	.
.	.	.	.	.	24ff#\	.	.	.	.	.	.	.	.	.	.	.
.	.	.	16cc\JJ)	.	.	.	16ee\	-cen-	.	.	.	.	.	.	.	.
.	.	.	.	.	24ee\JJ	.	.	.	.	.	.	.	.	.	.	.
=51	=51	=51	=51	=51	=51	=51	=51	=51	=51	=51	=51	=51	=51	=51	=51	=51
.	.	.	8qqcc/	.	8qqee/	.	.	.	.	.	.	.	.	.	.	.
4GG/	.	4.ryy	8b\L	.	8dd\L	.	8dd\	-te	.	.	.	.	8bb\L	.	8ddd\L	.
.	.	.	(16b\L	.	16dd\L	.	16dd\LL	Fi-	.	.	.	.	16bb\L	.	(16ddd\L	.
.	.	.	16g\)	.	16b\	.	16b\JJ	.	.	.	.	.	16gg\	.	16bb\)	.
8D\	.	.	(16a\	.	16cc\	.	16cc\LL	-li-	.	.	.	.	16aa\	.	(16ccc\	.
.	.	.	16f#\JJ)	.	16a\JJ	.	16a\JJ	.	.	.	.	.	16ff#\JJ	.	16aa\JJ)	.
!	!	!	!	!	!	!	!LO:LB:g=original	!	!	!	!	!	!	!	!	!
=52	=52	=52	=52	=52	=52	=52	=52	=52	=52	=52	=52	=52	=52	=52	=52	=52
.	.	.	8qqf#/	.	8qqa/	.	.	.	.	.	.	.	8qqff#/	.	.	.
4G\	.	4.ryy	4g/	.	4b\	.	4g\	-o	.	.	.	.	4gg\	.	4bb\	.
8r	.	.	16B-X/LL	.	16g/LL	.	8r	.	.	.	.	.	8r	.	8r	.
.	.	.	16c/JJ	.	16a/JJ	.	.	.	.	.	.	.	.	.	.	.
=53	=53	=53	=53	=53	=53	=53	=53	=53	=53	=53	=53	=53	=53	=53	=53	=53
!LO:TX:a:t=P:problem=mixed beam	!	!	!	!	!	!	!	!	!	!	!LO:TX:b:t=P:problem=niezrozumiałe symbole pod nutami	!	!	!	!	!
!	!	!	!	!	!	!	!	!	!	!LO:DY:t=p.	!	!	!LO:N:vis=00	!	!LO:N:vis=00	!
8GG/L	.	4.ryy	8d/L	.	8b-X/L	.	4b-X\	Qui	8G/L	p	8g\L	.	1.r	.	1.r	.
8G\	.	.	8d/J	.	8b-/J	.	.	.	8G/	.	8g\	.	.	.	.	.
8GG/J	.	.	(16d/LL	.	(16b-/LL	.	8a\	de	8G/J	.	8g\J	.	.	.	.	.
.	.	.	16c/JJ)	.	16a/JJ)	.	.	.	.	.	.	.	.	.	.	.
=54	=54	=54	=54	=54	=54	=54	=54	=54	=54	=54	=54	=54	=54	=54	=54	=54
!LO:TX:a:t=P:problem=mixed beam	!	!	!	!	!	!	!LO:SIC:v:l:s=cae-	!	!	!LO:DY:t=f&colon;	!	!	!	!	!	!
8GG/L	.	4.ryy	8B-X/L	.	8g/L	.	4g\	ce-	8G/L	f	8g\L	.	.	.	.	.
8G\	.	.	8B-/J	.	8g/J	.	.	.	8G/	.	8g\	.	.	.	.	.
8GG/J	.	.	(16B-/LL	.	(16g/LL	.	8a\	-lis	8G/J	.	8g\J	.	.	.	.	.
.	.	.	16c/JJ)	.	16a/JJ)	.	.	.	.	.	.	.	.	.	.	.
!	!	!	!	!	!	!	!	!	!LO:LB:g=original	!	!	!	!	!	!	!
=55	=55	=55	=55	=55	=55	=55	=55	=55	=55	=55	=55	=55	=55	=55	=55	=55
!LO:TX:a:t=P:problem=mixed beam	!	!	!	!	!	!	!	!	!	!	!	!	!	!	!	!
8GG/L	.	4.ryy	8d/L	.	8b-X/L	.	4b-X\	des-	8G/L	.	8g\L	.	.	.	.	.
8G\	.	.	16d/L	.	(16b-/L	.	.	.	8G/	.	8g\	.	.	.	.	.
.	.	.	16c/	.	16a/)	.	.	.	.	.	.	.	.	.	.	.
!	!	!	!	!	!	!	!	!	!LO:TX:b:t=P:problem=skreślona nuta G	!	!	!	!	!	!	!
8D/J	.	.	16B/	.	(16g/	.	8a\	-cen-	8c/J	.	8a\J	.	.	.	.	.
.	.	.	16A/JJ	.	16f#/JJ)	.	.	.	.	.	.	.	.	.	.	.
=56	=56	=56	=56	=56	=56	=56	=56	=56	=56	=56	=56	=56	=56	=56	=56	=56
!LO:TX:a:t=P:problem=mixed beam	!	!	!	!	!	!	!	!	!	!	!	!	!	!	!	!
.	.	.	8qqA/	.	8qqf#/	.	.	.	.	.	.	.	.	.	.	.
8GG/L	.	4.ryy	4B-X/	.	4g/	.	8g\	-dis-	8G/L	.	8g\L	.	.	.	.	.
8G\	.	.	.	.	.	.	8g\	-ti	8G/	.	8g\	.	.	.	.	.
8GG/J	.	.	(16B-/LL	.	(16g/LL	.	8r	.	8G/J	.	8g\J	.	.	.	.	.
.	.	.	16c/JJ)	.	16a/JJ)	.	.	.	.	.	.	.	.	.	.	.
=57	=57	=57	=57	=57	=57	=57	=57	=57	=57	=57	=57	=57	=57	=57	=57	=57
!LO:TX:a:t=P:problem=mixed beam	!	!	!	!	!	!	!	!	!	!	!	!	!LO:N:vis=0	!	!LO:N:vis=0	!
8GG/L	.	4.ryy	8d/L	.	8b-X/L	.	4b-X\	in	8G/L	.	8g\L	.	2.r	.	2.r	.
8G\	.	.	8d/J	.	8b-/J	.	.	.	8G/	.	8g\	.	.	.	.	.
8GG/J	.	.	(16d/LL	.	16b-/LL	.	8a\	ven-	8G/J	.	8g\J	.	.	.	.	.
.	.	.	16c/JJ)	.	16a/JJ	.	.	.	.	.	.	.	.	.	.	.
!LO:LB:g=original	!	!	!LO:LB:g=original	!	!	!	!	!	!	!	!	!	!	!	!	!
=58	=58	=58	=58	=58	=58	=58	=58	=58	=58	=58	=58	=58	=58	=58	=58	=58
!LO:TX:a:t=P:problem=mixed beam	!	!	!	!	!	!	!	!	!	!	!	!	!	!	!	!
8GG/L	.	4.ryy	8B-X/L	.	8g/L	.	4g\	-tre	8G/L	.	8g\L	.	.	.	.	.
8G\J	.	.	8B-/J	.	8g/J	.	.	.	8G/	.	8g\	.	.	.	.	.
16G\LL	.	.	16g/LL	.	16g/LL	.	8a\	me-	8G/J	.	8g\J	.	.	.	.	.
16A\JJ	.	.	16a/JJ	.	16a/JJ	.	.	.	.	.	.	.	.	.	.	.
=59	=59	=59	=59	=59	=59	=59	=59	=59	=59	=59	=59	=59	=59	=59	=59	=59
8B-X\L	.	4.ryy	8b-X/L	.	8b-X/L	.	8b-X\	-o	8G/L	.	8g\L	.	4.r	.	4.r	.
16G\L	.	.	(16g/L	.	16g/L	.	8g\	man-	8G/	.	8g\	.	.	.	.	.
16A\	.	.	16a/)	.	16a/	.	.	.	.	.	.	.	.	.	.	.
16B-\	.	.	(16b-/	.	16b-/	.	8g\	-siſ-	8G/J	.	8g\J	.	.	.	.	.
16c#X\JJ	.	.	16cc#X/JJ)	.	16cc#X/JJ	.	.	.	.	.	.	.	.	.	.	.
!	!	!	!	!	!LO:LB:g=original	!	!	!	!	!	!	!	!	!	!	!
=60	=60	=60	=60	=60	=60	=60	=60	=60	=60	=60	=60	=60	=60	=60	=60	=60
4d\	.	4.ryy	4dd\	.	4dd\	.	4f#X/	-ti	4d/	.	4a\	.	8r	.	8r	.
.	.	.	.	.	.	.	.	.	.	.	.	.	8r	.	8r	.
8D\	.	.	(16dd\LL	.	(16ff#\LL	.	8dd\	Li-	8r	.	8r	.	8ff#\	.	8aa\	.
.	.	.	16ff#\JJ)	.	16aa\JJ)	.	.	.	.	.	.	.	.	.	.	.
!	!	!	!	!	!	!	!LO:LB:g=original	!	!	!	!	!	!	!	!	!
=61	=61	=61	=61	=61	=61	=61	=61	=61	=61	=61	=61	=61	=61	=61	=61	=61
!	!	!	!LO:TX:a:t=P:problem=mixed beam	!	!	!	!	!	!LO:TX:a:t=9	!	!	!	!	!	!	!
.	.	.	.	.	.	.	.	.	.	.	.	.	8qqff#/	.	8qqaa/	.
!LO:TX:a:t=P:problem=mixed beam	!	!	!	!	!	!	!	!	!LO:N:vis=00	!	!LO:N:vis=00	!	!	!	!	!
8A\L	.	4.ryy	(>8ee\L	.	(8gg\L	.	8gg\L	-li-	1.r	.	1.r	.	4.ee\	.	4.gg\	.
8A\	.	.	8g/	.	8ee\)	.	(8ee\	.	.	.	.	.	.	.	.	.
8AA/J	.	.	8e/J)	.	8cc#X\J	.	8cc#X\J)	.	.	.	.	.	.	.	.	.
!	!	!	!	!	!	!	!	!	!	!	!	!	!LO:LB:g=original	!	!	!
=62	=62	=62	=62	=62	=62	=62	=62	=62	=62	=62	=62	=62	=62	=62	=62	=62
!	!	!	!LO:TX:a:t=P:problem=mixed beam	!	!	!	!	!	!	!	!	!	!	!	!	!
8D\	.	4.ryy	8f#/L	.	8dd\L	.	4.dd\	-o	.	.	.	.	8dd\	.	8ff#\	.
8r	.	.	8dd\	.	8ff#\	.	.	.	.	.	.	.	8r	.	8r	.
8D\	.	.	8ff#\J	.	8aa\J	.	.	.	.	.	.	.	8ff#\	.	8aa\	.
=63	=63	=63	=63	=63	=63	=63	=63	=63	=63	=63	=63	=63	=63	=63	=63	=63
!LO:TX:a:t=P:problem=mixed beam	!	!	!	!	!	!	!	!	!	!	!	!	!	!	!	!
.	.	.	.	.	.	.	.	.	.	.	.	.	8qqff#/	.	8qqaa/	.
8A\L	.	4.ryy	(8ee\L	.	(8gg\L	.	4ee\	Li-	.	.	.	.	4.ee\	.	4.gg\	.
8A\	.	.	8g\	.	8ee\)	.	.	.	.	.	.	.	.	.	.	.
8AA/J	.	.	8e\J)	.	8cc#X\J	.	8cc#X\	-li-	.	.	.	.	.	.	.	.
=64	=64	=64	=64	=64	=64	=64	=64	=64	=64	=64	=64	=64	=64	=64	=64	=64
!	!	!	!	!	!LO:SIC:v:s=8qcc#	!	!	!	!	!	!	!	!	!	!	!
.	.	.	8qqe/	.	8qqcc/	.	.	.	.	.	.	.	.	.	.	.
8D\	.	4.ryy	4f#/	.	4dd\	.	4dd\	-o	.	.	.	.	4dd\	.	4ff#\	.
8r	.	.	.	.	.	.	.	.	.	.	.	.	.	.	.	.
8d\	.	.	(16dd\LL	.	16ff#\LL	.	8ff#\	Li-	.	.	.	.	8r	.	8r	.
.	.	.	16ff#\JJ)	.	16aa\JJ	.	.	.	.	.	.	.	.	.	.	.
!	!	!	!	!	!	!	!	!	!	!	!	!	!	!	!LO:LB:g=original	!
=65	=65	=65	=65	=65	=65	=65	=65	=65	=65	=65	=65	=65	=65	=65	=65	=65
!LO:TX:a:t=P:problem=mixed beam	!	!	!	!	!	!	!	!	!LO:N:vis=00	!	!LO:N:vis=00	!	!LO:N:vis=00	!	!LO:N:vis=00	!
8A\L	.	4.ryy	(8ee\L	.	(8gg\L	.	8gg\L	-li-	1.r	.	1.r	.	1.r	.	1.r	.
8AA/	.	.	8g\	.	8ee\)	.	(8ee\	.	.	.	.	.	.	.	.	.
8AA/J	.	.	8e\J)	.	8cc#X\J	.	8cc#X\J)	.	.	.	.	.	.	.	.	.
=66	=66	=66	=66	=66	=66	=66	=66	=66	=66	=66	=66	=66	=66	=66	=66	=66
!	!	!	!LO:TX:a:t=P:problem=mixed beam	!	!	!	!	!	!	!	!	!	!	!	!	!
8D\	.	4.ryy	8f#/L	.	8dd\L	.	4dd\	-o	.	.	.	.	.	.	.	.
8r	.	.	8dd\	.	8ff#\	.	.	.	.	.	.	.	.	.	.	.
8D\	.	.	8ff#\J	.	8aa\J	.	8dd\	Li-	.	.	.	.	.	.	.	.
=67	=67	=67	=67	=67	=67	=67	=67	=67	=67	=67	=67	=67	=67	=67	=67	=67
!LO:TX:a:t=P:problem=mixed beam	!	!	!LO:TX:a:t=P:problem=mixed beam	!	!	!	!	!	!	!	!	!	!	!	!	!
8A\L	.	4.ryy	(>8ee\L	.	(8gg\L	.	4ee\	-li-	.	.	.	.	.	.	.	.
8AA/	.	.	8g/	.	8ee\)	.	.	.	.	.	.	.	.	.	.	.
8AA/J	.	.	8e/J)	.	8cc#X\J	.	8cc#X;\	.	.	.	.	.	.	.	.	.
=68	=68	=68	=68	=68	=68	=68	=68	=68	=68	=68	=68	=68	=68	=68	=68	=68
8D\L	.	4.ryy	8f#/L	.	8dd\L	.	8dd\	-o	.	.	.	.	.	.	.	.
8E\	.	.	8g/	.	(16cc#X\L	.	16cc#X\	di-	.	.	.	.	.	.	.	.
.	.	.	.	.	16b\J)	.	16b\	-lec-	.	.	.	.	.	.	.	.
8F#\J	.	.	8a/J	.	8a\J	.	8a\	-te	.	.	.	.	.	.	.	.
=69	=69	=69	=69	=69	=69	=69	=69	=69	=69	=69	=69	=69	=69	=69	=69	=69
!LO:TX:a:t=P:problem=mixed beam	!	!	!	!	!	!	!	!	!	!	!	!	!	!	!	!
8G\L	.	4.ryy	8b/L	.	(16b\LL	.	16b\LL	fi-	4.r	.	4.r	.	4.r	.	4.r	.
.	.	.	.	.	16gg\	.	16gg\JJ	.	.	.	.	.	.	.	.	.
8A\	.	.	(16a/L	.	16ff#\)	.	8ff#\L	-li-	.	.	.	.	.	.	.	.
.	.	.	16g/)	.	16ee\	.	.	.	.	.	.	.	.	.	.	.
8AA/J	.	.	(16f#/	.	16dd\	.	8ee\J	.	.	.	.	.	.	.	.	.
.	.	.	16e/JJ)	.	16cc#X\JJ	.	.	.	.	.	.	.	.	.	.	.
!	!	!	!	!	!	!	!	!	!	!	!LO:LB:g=original	!	!	!	!	!
=70	=70	=70	=70	=70	=70	=70	=70	=70	=70	=70	=70	=70	=70	=70	=70	=70
!	!	!	!	!	!LO:SIC:v:s=8qcc#	!	!	!	!	!	!	!	!	!	!	!
.	.	.	8qqe/	.	8qqcc/	.	.	.	.	.	.	.	.	.	.	.
!	!	!	!	!	!	!	!	!	!	!LO:DY:t=f	!	!	!	!	!	!
8D\L	f	4.ryy	4f#/	.	4dd\	.	4dd\	-o	8r	f	8r	.	8r	.	8r	.
!	!	!	!	!	!	!LO:DY:t=f&colon;	!	!	!	!	!	!	!	!	!	!LO:DY:a
8D\	.	.	.	.	.	f	.	.	8r	.	8r	.	8r	.	8r	f
!	!	!	!	!LO:DY:a:t=f	!	!	!	!	!	!	!	!LO:DY:t=f.	!	!LO:DY:a	!	!
8D\J	.	.	(16ff#\LL	f	16ddd\LL	.	8r	.	8d/	.	8d/	f	16ff#\LL	f	(16ddd\LL	.
.	.	.	16gg\JJ)	.	16bb\JJ	.	.	.	.	.	.	.	16gg\JJ	.	16bb\JJ)	.
!	!	!	!	!	!	!	!LO:LB:g=original	!	!	!	!	!	!	!	!	!
=71	=71	=71	=71	=71	=71	=71	=71	=71	=71	=71	=71	=71	=71	=71	=71	=71
!LO:TX:a:t=P:problem=takt zapisany repetycją	!	!	!	!	!	!	!LO:TX:a:t=12	!	!	!	!	!	!	!	!	!
.	.	.	.	.	.	.	.	.	.	.	.	.	8qqgg/	.	8qqbb/	.
!	!	!	!	!	!	!	!LO:N:vis=00	!	!	!	!	!	!	!	!	!
8D\Lyy	.	4.ryy	8ff#\L	.	8aa\L	.	1.r	.	8d/L	.	8d/L	.	8ff#\L	.	8aa\L	.
8D\yy	.	.	8ff#\J	.	8aa\J	.	.	.	8d/	.	8d/	.	8ff#\J	.	8aa\J	.
8D\Jyy	.	.	(16ff#\LL	.	(16ddd\LL	.	.	.	8d/J	.	8d/J	.	(16ff#\LL	.	(16ddd\LL	.
.	.	.	16gg\JJ)	.	16bb\JJ)	.	.	.	.	.	.	.	16gg\JJ)	.	16bb\JJ)	.
=72	=72	=72	=72	=72	=72	=72	=72	=72	=72	=72	=72	=72	=72	=72	=72	=72
.	.	.	.	.	8qqbb/	.	.	.	.	.	.	.	.	.	8qqbb/	.
8D\L	.	4.ryy	8ff#\L	.	8aa\L	.	.	.	8d/L	.	8d/L	.	8ff#\L	.	8aa\L	.
8D\	.	.	8ff#\J	.	8aa\J	.	.	.	8d/	.	8d/	.	8ff#\J	.	8aa\J	.
8D\J	.	.	(16gg\LL	.	16bb\LL	.	.	.	8d/J	.	8d/J	.	(16gg\LL	.	(16bb\LL	.
.	.	.	16ee\JJ)	.	16gg\JJ	.	.	.	.	.	.	.	16ee\JJ)	.	16gg\JJ)	.
!LO:LB:g=original	!	!	!LO:LB:g=original	!	!	!	!	!	!	!	!	!	!	!	!	!
=73	=73	=73	=73	=73	=73	=73	=73	=73	=73	=73	=73	=73	=73	=73	=73	=73
!LO:TX:a:t=P:problem=mixed beam	!	!	!	!	!	!	!	!	!	!	!	!	!	!	!	!
8D\L	.	4.ryy	8a/L	.	8ff#\L	.	.	.	8a\L	.	8a\L	.	8a/L	.	8ff#\L	.
8A\	.	.	8a/J	.	8ff#\J	.	.	.	8a\	.	8a\	.	8a/J	.	8ff#\J	.
8AA/J	.	.	16b/LL	.	16gg\LL	.	.	.	8a\J	.	8a\J	.	16b/LL	.	(16gg\LL	.
.	.	.	16g/JJ	.	16ee\JJ	.	.	.	.	.	.	.	16g/JJ	.	16ee\JJ)	.
=74	=74	=74	=74	=74	=74	=74	=74	=74	=74	=74	=74	=74	=74	=74	=74	=74
!	!	!	!	!	!	!LO:DY:a:rj:t=p	!	!	!	!	!	!	!	!	!	!
.	.	.	8qqg/	.	8qqee/	p	.	.	.	.	.	.	8qqg/	.	8qqee/	.
!	!LO:DY:t=p&colon;	!	!	!LO:DY:t=p	!	!	!	!	!	!LO:DY:t=p&colon;	!	!LO:DY:a:t=p	!	!	!	!
8D\L	p	4.ryy	4f#/	p	4dd\	.	.	.	4d/	p	4d/	p	4f#/	.	4dd\	.
8D\	.	.	.	.	.	.	.	.	.	.	.	.	.	.	.	.
8D\J	.	.	(16f#/LL	.	(16dd\LL	.	.	.	8d/	.	8d/	.	(16ff#\LL	.	(16ddd\LL	.
.	.	.	16g/JJ)	.	16b\JJ)	.	.	.	.	.	.	.	16gg\JJ)	.	16bb\JJ)	.
!	!	!	!	!	!LO:LB:g=original	!	!	!	!	!	!	!	!	!	!	!
=75	=75	=75	=75	=75	=75	=75	=75	=75	=75	=75	=75	=75	=75	=75	=75	=75
!	!	!	!	!	!	!	!LO:N:vis=00	!	!	!	!	!	!	!	!	!
8D\L	.	4.ryy	8f#/L	.	8a/L	.	1.r	.	8d/L	.	8d/L	.	8ff#\L	.	8aa\L	.
8D\	.	.	8f#/J	.	8a/J	.	.	.	8d/	.	8d/	.	8ff#\J	.	8aa\J	.
8D\J	.	.	16f#/LL	.	(16dd\LL	.	.	.	8d/J	.	8d/J	.	(16ff#\LL	.	16ddd\LL	.
.	.	.	16g/JJ	.	16b\JJ)	.	.	.	.	.	.	.	16gg\JJ)	.	16bb\JJ	.
=76	=76	=76	=76	=76	=76	=76	=76	=76	=76	=76	=76	=76	=76	=76	=76	=76
!	!	!	!	!	!	!	!	!	!	!	!	!	!LO:N:vis=16	!	!	!
8D\L	.	4.ryy	8f#/L	.	8a/L	.	.	.	8d/L	.	8d/L	.	8ff#\L	.	8aa\L	.
!	!	!	!	!	!	!	!	!	!	!	!	!	!LO:N:vis=16	!	!	!
8D\	.	.	8f#/J	.	8a/J	.	.	.	8d/	.	8d/	.	8ff#\J	.	8aa\J	.
8D\J	.	.	(16g/LL	.	(16b/LL	.	.	.	8d/J	.	8d/J	.	(16gg\LL	.	16bb\LL	.
.	.	.	16e/JJ)	.	16g/JJ)	.	.	.	.	.	.	.	16ee\JJ)	.	16gg\JJ	.
=77	=77	=77	=77	=77	=77	=77	=77	=77	=77	=77	=77	=77	=77	=77	=77	=77
!LO:TX:a:t=P:problem=mixed beam	!	!	!	!	!	!	!	!	!	!	!	!	!	!	!	!
8A\L	.	4.ryy	8d/L	.	8f#/L	.	.	.	8a\L	.	8a\L	.	8dd\L	.	8ff#\L	.
8AA/	.	.	8d/J	.	8f#/J	.	.	.	8a\	.	8a\	.	8dd\J	.	8ff#\J	.
8AA/J	.	.	(16e/LL	.	(16g/LL	.	.	.	8a\J	.	8a\J	.	(16ee\LL	.	16gg\LL	.
.	.	.	16g/JJ)	.	16e/JJ)	.	.	.	.	.	.	.	16gg\JJ)	.	16ee\JJ	.
!	!	!	!	!	!	!	!	!	!LO:LB:g=original	!	!	!	!	!	!	!
=78	=78	=78	=78	=78	=78	=78	=78	=78	=78	=78	=78	=78	=78	=78	=78	=78
!	!	!	!	!LO:DY:a:t=f&colon;	!	!	!	!	!	!	!	!	!	!	!	!
.	.	.	8qqg/	f	8qqe/	.	.	.	.	.	.	.	8qqgg/	.	8qqee/	.
!	!LO:DY:t=f&colon;	!	!	!	!	!	!	!	!	!LO:DY:t=f&colon;	!	!LO:DY:a	!	!	!	!
8DL 8BB\	f	4.ryy	4f#/	.	4d/	.	.	.	8d/L	f	8d/L	f	4ff#\	.	4dd\	.
!	!	!	!	!	!	!LO:DY:t=f&colon;	!	!	!	!	!	!	!	!	!	!
8D\	.	.	.	.	.	f	.	.	8d/	.	8d/	.	.	.	.	.
8D\J	.	.	(16a/LL	.	(16ff#\LL	.	.	.	8d/J	.	8d/J	.	16a/LL	.	(16ff#\LL	.
!	!	!	!	!	!	!	!	!	!	!	!	!	!LO:TX:b:t=e	!	!	!
.	.	.	16e/JJ)	.	16cc#X\JJ)	.	.	.	.	.	.	.	16e/JJ	.	16cc#X\JJ)	.
=79	=79	=79	=79	=79	=79	=79	=79	=79	=79	=79	=79	=79	=79	=79	=79	=79
.	.	.	8qqe/	.	.	.	.	.	.	.	.	.	.	.	.	.
!	!	!	!	!	!	!	!LO:N:vis=00	!	!	!	!	!	!	!	!	!
8D\L	.	4.ryy	4f#/	.	4dd\	.	1.r	.	8d/L	.	8d/L	.	4f#/	.	4dd\	.
8D\	.	.	.	.	.	.	.	.	8d/	.	8d/	.	.	.	.	.
8D\J	.	.	(16dd\LL	.	(16ff#\LL	.	.	.	8d/J	.	8d/J	.	(16dd\LL	.	(16ff#\LL	.
.	.	.	16ff#\JJ)	.	16aa\JJ)	.	.	.	.	.	.	.	16ff#\JJ)	.	16aa\JJ)	.
!	!	!	!	!	!	!	!	!	!	!	!	!	!	!	!LO:LB:g=original	!
=80	=80	=80	=80	=80	=80	=80	=80	=80	=80	=80	=80	=80	=80	=80	=80	=80
.	.	.	8qqff#/	.	8qqaa/	.	.	.	.	.	.	.	8qqff#/	.	8qqaa/	.
8AA/L	.	4.ryy	4ee\	.	4gg\	.	.	.	8a\L	.	8a\L	.	4ee\	.	4gg\	.
8AA/	.	.	.	.	.	.	.	.	8a\	.	8a\	.	.	.	.	.
8AA/J	.	.	(16g/LL	.	16ee\LL	.	.	.	8a\J	.	8a\J	.	(16g/LL	.	16ee\LL	.
.	.	.	16e/JJ)	.	16cc#X\JJ	.	.	.	.	.	.	.	16e/JJ)	.	16cc#X\JJ	.
=81	=81	=81	=81	=81	=81	=81	=81	=81	=81	=81	=81	=81	=81	=81	=81	=81
!	!	!	!	!	!	!	!	!	!	!	!	!	!LO:TX:a:t=P:problem=mixed beam	!	!	!
8D\L	.	4.ryy	8f#/L	.	8dd\L	.	.	.	8d/L	.	8a\L	.	16f#/LL	.	16dd\LL	.
.	.	.	.	.	.	.	.	.	.	.	.	.	16ddd\	.	16ddd\	.
16A\L	.	.	16a/L	.	16a\L	.	.	.	8d/	.	8a\	.	16aa\	.	16aa\	.
16G\	.	.	16g/	.	16g\	.	.	.	.	.	.	.	16gg\	.	16gg\	.
16F#\	.	.	16f#/	.	16f#\	.	.	.	8d/J	.	8a\J	.	16ff#\	.	16ff#\	.
16E\JJ	.	.	16e/JJ	.	16e\JJ	.	.	.	.	.	.	.	16ee\JJ	.	16ee\JJ	.
!	!	!	!	!	!	!	!	!	!	!	!	!	!LO:LB:g=original	!	!	!
=82	=82	=82	=82	=82	=82	=82	=82	=82	=82	=82	=82	=82	=82	=82	=82	=82
4D\	.	4.ryy	4d/	.	4d/	.	.	.	4d/	.	4a\	.	4dd\	.	4dd\	.
8r	.	.	8r	.	8r	.	.	.	8r	.	8r	.	8r	.	8r	.
=83	=83	=83	=83	=83	=83	=83	=83	=83	=83	=83	=83	=83	=83	=83	=83	=83
!	!LO:DY:t=p&colon;	!	!	!LO:DY:a	!	!LO:DY:a:t=p	!	!	!LO:N:vis=00	!	!LO:N:vis=00	!	!LO:N:vis=0	!	!LO:N:vis=0	!
8D\L	p	4.ryy	4.f#/	p	4.dd\	p	4.dd\	Tu	1.r	.	1.r	.	2.r	.	2.r	.
8d\	.	.	.	.	.	.	.	.	.	.	.	.	.	.	.	.
8d\J	.	.	.	.	.	.	.	.	.	.	.	.	.	.	.	.
=84	=84	=84	=84	=84	=84	=84	=84	=84	=84	=84	=84	=84	=84	=84	=84	=84
8D\L	.	4.ryy	4.dd\	.	4.ff#\	.	4.ff#\	in	.	.	.	.	.	.	.	.
8d\	.	.	.	.	.	.	.	.	.	.	.	.	.	.	.	.
8d\J	.	.	.	.	.	.	.	.	.	.	.	.	.	.	.	.
=85	=85	=85	=85	=85	=85	=85	=85	=85	=85	=85	=85	=85	=85	=85	=85	=85
!	!	!	!	!	!	!	!LO:SIC:v:l:s=cae-	!	!	!	!	!	!	!LO:DY:a:t=Pia	!	!
8D\L	.	4.ryy	8ff#\L	.	8aa\L	.	8.aa\	cel-	.	.	.	.	8ff#\L	p	8aa\L	.
8d\	.	.	(16ff#\L	.	16aa\L	.	.	.	.	.	.	.	(16ff#\L	.	16aa\L	.
.	.	.	16dd\)	.	16ff#\	.	16ff#\	-lo	.	.	.	.	16dd\)	.	16ff#\	.
8A\J	.	.	(16ee\	.	16gg\	.	16gg\	reg-	.	.	.	.	(16ee\	.	16gg\	.
.	.	.	16cc#X\JJ)	.	16ee\JJ	.	16ee\	-nans	.	.	.	.	16cc#X\JJ)	.	16ee\JJ	.
=86	=86	=86	=86	=86	=86	=86	=86	=86	=86	=86	=86	=86	=86	=86	=86	=86
!	!	!	!LO:SIC:v:s=8qqcc#	!	!	!	!	!	!	!	!	!	!LO:SIC:v:s=8qcc#	!	!	!
.	.	.	8qqcc/	.	8qqee/	.	.	.	.	.	.	.	8qqcc/	.	8qqee/	.
8D\L	.	4.ryy	4.dd\	.	4.ff#\	.	8ff#\	De-	.	.	.	.	4dd\	.	4.ff#\	.
16d\L	.	.	.	.	.	.	8dd\	-us	.	.	.	.	.	.	.	.
16A\	.	.	.	.	.	.	.	.	.	.	.	.	.	.	.	.
16G\	.	.	.	.	.	.	8r	.	.	.	.	.	8r	.	.	.
16F#\JJ	.	.	.	.	.	.	.	.	.	.	.	.	.	.	.	.
=87	=87	=87	=87	=87	=87	=87	=87	=87	=87	=87	=87	=87	=87	=87	=87	=87
!	!	!	!	!	!	!	!	!	!LO:N:vis=00	!	!LO:N:vis=00	!	!LO:N:vis=0	!	!LO:N:vis=0	!
8D\L	.	4.ryy	4.f#/	.	4.dd\	.	4.dd\	Hunc	1.r	.	1.r	.	2.r	.	2.r	.
8d\	.	.	.	.	.	.	.	.	.	.	.	.	.	.	.	.
8d\J	.	.	.	.	.	.	.	.	.	.	.	.	.	.	.	.
!LO:LB:g=original	!	!	!	!	!	!	!	!	!	!	!	!	!	!	!	!
=88	=88	=88	=88	=88	=88	=88	=88	=88	=88	=88	=88	=88	=88	=88	=88	=88
8D\L	.	4.ryy	4.dd\	.	4.ff#\	.	4ff#\	fac-	.	.	.	.	.	.	.	.
8d\	.	.	.	.	.	.	.	.	.	.	.	.	.	.	.	.
8d\J	.	.	.	.	.	.	8gg\	-tus	.	.	.	.	.	.	.	.
!	!	!	!LO:LB:g=original	!	!	!	!	!	!	!	!	!	!	!	!	!
=89	=89	=89	=89	=89	=89	=89	=89	=89	=89	=89	=89	=89	=89	=89	=89	=89
8D\L	.	4.ryy	8ff#\L	.	8aa\L	.	8aa\	est	.	.	.	.	8ff#\L	.	8aa\L	.
8A\	.	.	(16ff#\L	.	16aa\L	.	16aa\LL	na-	.	.	.	.	(16ff#\L	.	(16aa\L	.
.	.	.	16dd\)	.	16ff#\	.	16ff#\JJ	.	.	.	.	.	16dd\)	.	16ff#\)	.
8A\J	.	.	(16ee\	.	16gg\	.	16gg\LL	-tus	.	.	.	.	(16ee\	.	(16gg\	.
.	.	.	16cc#X\JJ)	.	16ee\JJ	.	16ee\JJ	.	.	.	.	.	16cc#X\JJ)	.	16ee\JJ)	.
=90	=90	=90	=90	=90	=90	=90	=90	=90	=90	=90	=90	=90	=90	=90	=90	=90
!	!	!	!LO:SIC:v:s=8qqcc#	!	!	!	!	!	!	!	!	!	!LO:SIC:v:s=8qcc#	!	!	!
.	.	.	8qqcc/	.	8qqee/	.	.	.	.	.	.	.	8qqcc/	.	8qqee/	.
8d\L	.	4.ryy	4.dd\	.	4.ff#\	.	8dd\	me-	.	.	.	.	4.dd\	.	4.ff#\	.
8A\	.	.	.	.	.	.	8dd\	-us	.	.	.	.	.	.	.	.
8D\J	.	.	.	.	.	.	8r	.	.	.	.	.	.	.	.	.
!	!	!	!	!	!LO:LB:g=original	!	!	!	!	!	!	!	!	!	!	!
=91	=91	=91	=91	=91	=91	=91	=91	=91	=91	=91	=91	=91	=91	=91	=91	=91
!	!	!	!	!	!	!	!	!	!LO:N:vis=00	!	!LO:N:vis=00	!	!	!	!	!
4D\	.	4.ryy	4a/	.	(16dd\LL	.	8dd\	Fi-	1.r	.	1.r	.	8ff#\L	.	16ddd\LL	.
.	.	.	.	.	16a\)	.	.	.	.	.	.	.	.	.	16aa\JJ	.
.	.	.	.	.	(16ff#\	.	8ff#\L	-li-	.	.	.	.	8ff#\	.	4aaT\	.
.	.	.	.	.	16a\)	.	.	.	.	.	.	.	.	.	.	.
8A\	.	.	8cc#X\	.	(16ee\	.	8ee\J	.	.	.	.	.	8ee\J	.	.	.
.	.	.	.	.	16a\JJ)	.	.	.	.	.	.	.	.	.	.	.
!	!	!	!	!	!	!	!LO:LB:g=original	!	!	!	!	!	!	!	!	!
=92	=92	=92	=92	=92	=92	=92	=92	=92	=92	=92	=92	=92	=92	=92	=92	=92
4d\	.	4.ryy	4a/	.	(16dd\LL	.	4dd\	-o	.	.	.	.	8ff#\L	.	16ddd\LL	.
.	.	.	.	.	16a\)	.	.	.	.	.	.	.	.	.	16aa\JJ	.
.	.	.	.	.	(16ff#\	.	.	.	.	.	.	.	8ff#\	.	4aaT\	.
.	.	.	.	.	16a\)	.	.	.	.	.	.	.	.	.	.	.
8A\	.	.	8cc#X\	.	16ee\	.	8r	.	.	.	.	.	8ee\J	.	.	.
.	.	.	.	.	16a\JJ	.	.	.	.	.	.	.	.	.	.	.
=93	=93	=93	=93	=93	=93	=93	=93	=93	=93	=93	=93	=93	=93	=93	=93	=93
!LO:TX:a:t=P:problem=mixed beam	!	!	!	!	!	!	!	!	!	!	!	!	!	!	!	!
8D\L	.	4.ryy	(16dd\LL	.	16ff#\LL	.	8dd\	di-	.	.	.	.	(16dd\LL	.	16ff#\LL	.
.	.	.	16ff#\JJ)	.	16aa\	.	.	.	.	.	.	.	16ff#\)	.	16aa\	.
!	!	!	!LO:TX:a:t=P:problem=mixed beam	!	!	!	!	!	!	!	!	!	!	!	!	!
8A\	.	.	(>16dd\LL	.	16ff#\	.	16ff#\	-lec-	.	.	.	.	(16dd\	.	16ff#\	.
.	.	.	16f#/JJ)	.	16dd\	.	16dd\	-te	.	.	.	.	16ff#\)	.	16dd\	.
8AA/J	.	.	(16g/LL	.	16ee\	.	16ee\	fi-	.	.	.	.	(16gg\	.	16ee\	.
.	.	.	16e/JJ)	.	16cc#X\JJ	.	16cc#X\	-li-	.	.	.	.	16ee\JJ)	.	16cc#X\JJ	.
=94	=94	=94	=94	=94	=94	=94	=94	=94	=94	=94	=94	=94	=94	=94	=94	=94
!	!	!	!	!	!LO:SIC:v:s=8qcc#	!	!	!	!	!	!	!	!	!	!	!
.	.	.	8qqe/	.	8qqcc/	.	.	.	.	.	.	.	.	.	.	.
8D/L	.	4.ryy	4.f#/	.	4dd\	.	4dd\	-o	.	.	.	.	4ff#\	.	4dd\	.
16D/L	.	.	.	.	.	.	.	.	.	.	.	.	.	.	.	.
16Cn/	.	.	.	.	.	.	.	.	.	.	.	.	.	.	.	.
16BB/	.	.	.	.	8r	.	8r	.	.	.	.	.	8r	.	8r	.
16AA/JJ	.	.	.	.	.	.	.	.	.	.	.	.	.	.	.	.
=95	=95	=95	=95	=95	=95	=95	=95	=95	=95	=95	=95	=95	=95	=95	=95	=95
!	!	!	!	!	!	!	!LO:TX:a:t=4	!	!	!	!	!	!	!	!	!
!	!	!	!	!	!	!	!LO:N:vis=00	!	!	!	!	!LO:DY:t=p&colon;	!LO:N:vis=0	!	!LO:N:vis=0	!
8GG/L	.	4.ryy	4.B/	.	4.g/	.	1.r	.	8r	.	8r	p	2.r	.	2.r	.
!	!	!	!	!	!	!	!	!	!	!LO:DY:a	!	!	!	!	!	!
8G/	.	.	.	.	.	.	.	.	8B/L	p	8g\L	.	.	.	.	.
8G/J	.	.	.	.	.	.	.	.	8B/J	.	8g\J	.	.	.	.	.
!	!	!	!	!	!	!	!	!	!	!	!LO:LB:g=original	!	!	!	!	!
=96	=96	=96	=96	=96	=96	=96	=96	=96	=96	=96	=96	=96	=96	=96	=96	=96
8GG/L	.	4.ryy	4.g/	.	4.b\	.	.	.	8r	.	8r	.	.	.	.	.
8G/	.	.	.	.	.	.	.	.	8g\L	.	8b\L	.	.	.	.	.
8G/J	.	.	.	.	.	.	.	.	8g\J	.	8b\J	.	.	.	.	.
!	!	!	!	!	!	!	!	!	!	!	!	!	!	!	!LO:LB:g=original	!
=97	=97	=97	=97	=97	=97	=97	=97	=97	=97	=97	=97	=97	=97	=97	=97	=97
8GG/L	.	4.ryy	8b/L	.	8dd\L	.	.	.	8b\L	.	8dd\L	.	8bb\L	.	8ddd\L	.
8G/	.	.	16b/L	.	(16dd\L	.	.	.	8b\	.	8dd\	.	16bb\L	.	16ddd\L	.
.	.	.	16g/	.	16b\)	.	.	.	.	.	.	.	16gg\	.	16bb\	.
8G/J	.	.	16a/	.	(16ccn\	.	.	.	8cc\J	.	8ee\J	.	16aa\	.	16ccc\	.
.	.	.	16ccn/JJ	.	16ee\JJ)	.	.	.	.	.	.	.	16cccn\JJ	.	16eee\JJ	.
=98	=98	=98	=98	=98	=98	=98	=98	=98	=98	=98	=98	=98	=98	=98	=98	=98
.	.	.	8qqcc/	.	8qqee/	.	.	.	8qqcc/	.	8qqee/	.	8qqccc/	.	8qqeee/	.
8GG/L	.	4.ryy	4.b\	.	4.dd\	.	.	.	4.b\	.	4.dd\	.	4.bb\	.	4.ddd\	.
8G/	.	.	.	.	.	.	.	.	.	.	.	.	.	.	.	.
8G/J	.	.	.	.	.	.	.	.	.	.	.	.	.	.	.	.
=99	=99	=99	=99	=99	=99	=99	=99	=99	=99	=99	=99	=99	=99	=99	=99	=99
!	!	!	!	!	!	!	!LO:SIC:v:l:s=Quem	!	!	!	!	!	!LO:N:vis=0	!	!LO:N:vis=0	!
8GG/L	.	4.ryy	4.B/	.	4.g/	.	4.g\	Qum	8r	.	8r	.	2.r	.	2.r	.
8G/	.	.	.	.	.	.	.	.	8B/L	.	8g\L	.	.	.	.	.
8G/J	.	.	.	.	.	.	.	.	8B/J	.	8g\J	.	.	.	.	.
=100	=100	=100	=100	=100	=100	=100	=100	=100	=100	=100	=100	=100	=100	=100	=100	=100
8GG/L	.	4.ryy	4.g/	.	4.b/	.	4b\	Al-	8r	.	8r	.	.	.	.	.
8G/	.	.	.	.	.	.	.	.	8g\L	.	8b\L	.	.	.	.	.
!	!	!	!	!	!	!	!LO:SIC:v:l:s=-ta	!	!	!	!	!	!	!	!	!
8G/J	.	.	.	.	.	.	8cc\	-la	8g\J	.	8b\J	.	.	.	.	.
=101	=101	=101	=101	=101	=101	=101	=101	=101	=101	=101	=101	=101	=101	=101	=101	=101
8GG/L	.	4.ryy	8b/L	.	8dd\L	.	8dd\	Lau-	8b\L	.	8dd\L	.	8bb\L	.	8ddd\L	.
8G/	.	.	(16b/L	.	(16dd\L	.	16dd\LL	-dant	8b\	.	8dd\	.	(16bb\L	.	(16ddd\L	.
.	.	.	16g/)	.	16b\)	.	16b\JJ	.	.	.	.	.	16gg\)	.	16bb\)	.
!	!	!	!	!	!	!	!LO:SIC:v:l:s=sy-	!	!	!	!	!	!	!	!	!
8G/J	.	.	(16a/	.	(16cc\	.	16cc\	si-	8cc\J	.	8ee\J	.	(16aa\	.	(16ccc\	.
.	.	.	16cc/JJ)	.	16ee\JJ)	.	16ee\	-de-	.	.	.	.	16ccc\JJ)	.	16eee\JJ)	.
=102	=102	=102	=102	=102	=102	=102	=102	=102	=102	=102	=102	=102	=102	=102	=102	=102
.	.	.	8qqcc/	.	8qqee/	.	.	.	8qqcc/	.	8qqee/	.	8qqccc/	.	8qqeee/	.
8GG/L	.	4.ryy	4.b\	.	4.dd\	.	4dd\	-ra	4.b\	.	4.dd\	.	4.bb\	.	4.ddd\	.
8G/	.	.	.	.	.	.	.	.	.	.	.	.	.	.	.	.
8G/J	.	.	.	.	.	.	8r	.	.	.	.	.	.	.	.	.
!LO:LB:g=original	!	!	!	!	!	!	!	!	!	!	!	!	!	!	!	!
=103	=103	=103	=103	=103	=103	=103	=103	=103	=103	=103	=103	=103	=103	=103	=103	=103
4GG/	.	4.ryy	4d/	.	(16g/LL	.	8g\	Li-	8g\L	.	8b\L	.	8b\L	.	16gg\LL	.
.	.	.	.	.	16d/)	.	.	.	.	.	.	.	.	.	16dd\JJ	.
.	.	.	.	.	(16b/	.	8b\L	-li-	8g\	.	8b\	.	8b\	.	4ddT\	.
.	.	.	.	.	16d/)	.	.	.	.	.	.	.	.	.	.	.
8D/	.	.	8f#/	.	(16a/	.	8a\J	.	8d\J	.	8a\J	.	8a\J	.	.	.
.	.	.	.	.	16d/JJ)	.	.	.	.	.	.	.	.	.	.	.
!	!	!	!	!	!	!	!	!	!LO:LB:g=original	!	!	!	!	!	!	!
=104	=104	=104	=104	=104	=104	=104	=104	=104	=104	=104	=104	=104	=104	=104	=104	=104
4G\	.	4.ryy	4d/	.	(16g/LL	.	4g\	-o	8g\L	.	8b\L	.	8b\L	.	16gg\LL	.
.	.	.	.	.	16d/)	.	.	.	.	.	.	.	.	.	16dd\JJ	.
.	.	.	.	.	(16b/	.	.	.	8g\	.	8b\	.	8b\	.	4ddT\	.
.	.	.	.	.	16d/)	.	.	.	.	.	.	.	.	.	.	.
8D\	.	.	8f#/	.	(16a/	.	8r	.	8d\J	.	8a\J	.	8a\J	.	.	.
.	.	.	.	.	16d/JJ)	.	.	.	.	.	.	.	.	.	.	.
!	!	!	!LO:LB:g=original	!	!	!	!LO:LB:g=original	!	!	!	!	!	!LO:LB:g=original	!	!	!
=105	=105	=105	=105	=105	=105	=105	=105	=105	=105	=105	=105	=105	=105	=105	=105	=105
!LO:TX:a:t=P:problem=mixed beam	!	!	!	!	!	!	!	!	!	!	!	!	!	!	!	!
8GG/L	.	4.ryy	(16g/LL	.	(16b\LL	.	16b\LL	Li-	8g\L	.	8b\L	.	16gg\LL	.	16bb\LL	.
.	.	.	16b/)	.	16dd\)	.	16dd\JJ	.	.	.	.	.	16bb\	.	16ddd\	.
8G\	.	.	(16g/	.	(16b\	.	8b\L	-li-	8g\J	.	8b\J	.	16gg\	.	16bb\	.
.	.	.	16B/)	.	16g\)	.	.	.	.	.	.	.	16b\	.	16gg\	.
8D\J	.	.	(16c/	.	(16a\	.	8a\J	.	16d/LL	.	16a\LL	.	16cc\	.	16aa\	.
.	.	.	16A/JJ)	.	16f#\JJ)	.	.	.	16d/JJ	.	16a\JJ	.	16a\JJ	.	16ff#\JJ	.
=106	=106	=106	=106	=106	=106	=106	=106	=106	=106	=106	=106	=106	=106	=106	=106	=106
.	.	.	8qqA/	.	8qqf#/	.	.	.	.	.	.	.	8qqa/	.	8qqff#/	.
4GG/	.	4.ryy	4B/	.	4g/	.	4g\	-o	4B/	.	4g\	.	4b\	.	4gg\	.
8r	.	.	8r	.	(16ffn\LL	.	8r	.	8r	.	8r	.	8r	.	8r	.
.	.	.	.	.	16dd\JJ)	.	.	.	.	.	.	.	.	.	.	.
!	!	!	!	!	!LO:LB:g=original	!	!	!	!	!	!	!	!	!	!	!
=107	=107	=107	=107	=107	=107	=107	=107	=107	=107	=107	=107	=107	=107	=107	=107	=107
.	.	.	.	.	8qqcc/	.	.	.	.	.	.	.	.	.	.	.
!	!	!	!	!	!	!	!	!	!LO:N:vis=00	!	!LO:N:vis=00	!	!	!	!	!
8G\L	.	4.ryy	8dd\L	.	4.b\	.	4.b\	Te	1.r	.	1.r	.	8r	.	8r	.
8G\	.	.	8dd\	.	.	.	.	.	.	.	.	.	8r	.	8r	.
8G\J	.	.	8dd\J	.	.	.	.	.	.	.	.	.	8dd\	.	8ffn\	.
=108	=108	=108	=108	=108	=108	=108	=108	=108	=108	=108	=108	=108	=108	=108	=108	=108
.	.	.	.	.	8qqb/	.	.	.	.	.	.	.	8qqdd/	.	8qqff#/	.
!	!	!	!	!	!	!	!LO:SIC:v:l:s=lau-	!	!	!	!	!	!	!	!	!
4C/	.	4.ryy	4ee\	.	4cc\	.	4cc\	lan-	.	.	.	.	4cc\	.	4ee\	.
8r	.	.	(16cc\LL	.	(16ee\LL	.	16ee\LL	-dant	.	.	.	.	8r	.	8r	.
.	.	.	16ee\JJ)	.	16gg\JJ)	.	16gg\JJ	.	.	.	.	.	.	.	.	.
=109	=109	=109	=109	=109	=109	=109	=109	=109	=109	=109	=109	=109	=109	=109	=109	=109
.	.	.	8qqee/	.	8qqgg/	.	.	.	.	.	.	.	.	.	.	.
8G\L	.	4.ryy	4dd\	.	4ff#\	.	8ffn\	me-	.	.	.	.	8r	.	8r	.
8G\	.	.	.	.	.	.	8ff\	-a	.	.	.	.	8r	.	8r	.
8G\J	.	.	(16fn/LL	.	(16dd\LL	.	16dd\LL	u-	.	.	.	.	8dd\	.	8ff#\	.
.	.	.	16d/JJ)	.	16b\JJ)	.	16b\JJ	-be-	.	.	.	.	.	.	.	.
=110	=110	=110	=110	=110	=110	=110	=110	=110	=110	=110	=110	=110	=110	=110	=110	=110
.	.	.	8qqd/	.	8qqb/	.	.	.	.	.	.	.	8qqdd/	.	8qqff#/	.
4C/	.	4.ryy	4e/	.	4cc\	.	4cc\	-ra	.	.	.	.	4cc\	.	4ee\	.
8r	.	.	8r	.	(16gg\LL	.	8r	.	.	.	.	.	8r	.	8r	.
.	.	.	.	.	16ee\JJ)	.	.	.	.	.	.	.	.	.	.	.
=111	=111	=111	=111	=111	=111	=111	=111	=111	=111	=111	=111	=111	=111	=111	=111	=111
.	.	.	.	.	8qqdd/	.	.	.	.	.	.	.	.	.	.	.
!	!	!	!	!	!	!	!	!	!LO:N:vis=00	!	!LO:N:vis=00	!	!	!	!	!
8A\L	.	4.ryy	8ee\L	.	4.cc#X\	.	4.cc#X\	Te	1.r	.	1.r	.	8r	.	8r	.
8A\	.	.	8ee\	.	.	.	.	.	.	.	.	.	8r	.	8r	.
8A\J	.	.	8ee\J	.	.	.	.	.	.	.	.	.	8ee\	.	8gg\	.
=112	=112	=112	=112	=112	=112	=112	=112	=112	=112	=112	=112	=112	=112	=112	=112	=112
.	.	.	8qqee/	.	8qqcc/	.	.	.	.	.	.	.	8qqdd/	.	8qqgg/	.
!	!	!	!	!	!LO:N:vis=4.	!	!LO:SIC:v:l:s=lau-	!	!	!	!	!	!	!	!	!
4D\	.	4.ryy	4ff#X\	.	4dd\	.	4dd\	lan-	.	.	.	.	4cc\	.	4ff#\	.
8r	.	.	(16dd\LL	.	16ff#X\LL	.	16ff#X\LL	-dant	.	.	.	.	8r	.	8r	.
.	.	.	16ff#\JJ)	.	16aa\JJ	.	16aa\JJ	.	.	.	.	.	.	.	.	.
!	!	!	!	!	!	!	!	!	!	!	!	!	!	!	!LO:LB:g=original	!
=113	=113	=113	=113	=113	=113	=113	=113	=113	=113	=113	=113	=113	=113	=113	=113	=113
.	.	.	8qqff#/	.	8qqaa/	.	.	.	.	.	.	.	.	.	.	.
8A\L	.	4.ryy	4ee\	.	4gg\	.	8gg\	me-	.	.	.	.	8r	.	8r	.
8A\	.	.	.	.	.	.	8gg\	-a	.	.	.	.	8r	.	8r	.
8A\J	.	.	(16g/LL	.	(16ee\LL	.	16ee\LL	u-	.	.	.	.	8ee\	.	8gg\	.
.	.	.	16e/JJ)	.	16cc#X\JJ)	.	16cc#X\JJ	-be-	.	.	.	.	.	.	.	.
=114	=114	=114	=114	=114	=114	=114	=114	=114	=114	=114	=114	=114	=114	=114	=114	=114
!	!	!	!	!	!LO:SIC:v:s=8qcc#	!	!	!	!	!	!	!	!	!	!	!
.	.	.	8qqe/	.	8qqcc/	.	.	.	.	.	.	.	8qqdd/	.	8qqgg/	.
4D\	.	4.ryy	4f#/	.	4dd\	.	4dd\	-ra	.	.	.	.	4cc\	.	4ff#\	.
8r	.	.	(16B-X/LL	.	(16g/LL	.	8r	.	.	.	.	.	8r	.	8r	.
.	.	.	16c/JJ)	.	16a/JJ)	.	.	.	.	.	.	.	.	.	.	.
!	!	!	!	!	!	!	!LO:LB:g=original	!	!	!	!	!	!	!	!	!
=115	=115	=115	=115	=115	=115	=115	=115	=115	=115	=115	=115	=115	=115	=115	=115	=115
!LO:TX:a:t=P:problem=mixed beam	!	!	!	!	!	!	!	!	!	!LO:DY:rj:t=p&colon;	!	!LO:DY:t=p&colon;	!LO:N:vis=00	!	!LO:N:vis=00	!
8GG/L	.	4.ryy	8d/L	.	8b-X/L	.	4b-\	Li-	(8G'/L	p	8g\L	p	1.r	.	1.r	.
8G\	.	.	8d/J	.	8b-/J	.	.	.	8G'/	.	8g\	.	.	.	.	.
8GG/J	.	.	16d/LL	.	(16b-/LL	.	8a\	-li-	8G'/J)	.	8g\J	.	.	.	.	.
.	.	.	16c/JJ	.	16a/JJ)	.	.	.	.	.	.	.	.	.	.	.
=116	=116	=116	=116	=116	=116	=116	=116	=116	=116	=116	=116	=116	=116	=116	=116	=116
!LO:TX:a:t=P:problem=mixed beam	!	!	!	!	!	!	!	!	!	!	!	!	!	!	!	!
8GG/L	.	4.ryy	8B-X/L	.	8g/L	.	4g\	-o	(8G'/L	.	8g\L	.	.	.	.	.
8G\	.	.	8B-/J	.	8g/J	.	.	.	8G'/	.	8g\	.	.	.	.	.
8GG/J	.	.	16B-/LL	.	(16g/LL	.	8a\	di-	8G'/J)	.	8g\J	.	.	.	.	.
.	.	.	16c/JJ	.	16a/JJ)	.	.	.	.	.	.	.	.	.	.	.
=117	=117	=117	=117	=117	=117	=117	=117	=117	=117	=117	=117	=117	=117	=117	=117	=117
!LO:TX:a:t=P:problem=mixed beam	!	!	!	!	!	!	!	!	!	!	!	!	!	!	!	!
8GG/L	.	4.ryy	8d/L	.	8b-X/L	.	8b-X\	-lec-	(8G'/L	.	8g\L	.	.	.	.	.
8G\	.	.	16d/L	.	16b-/L	.	8b-\	-te	8G'/	.	8g\	.	.	.	.	.
.	.	.	16c/	.	16a/	.	.	.	.	.	.	.	.	.	.	.
!	!	!	!	!	!	!	!	!	!LO:TX:b:t=g	!	!	!	!	!	!	!
8D/J	.	.	16B/	.	16g/	.	8a\	fi-	8d' 8B/J)	.	8a\J	.	.	.	.	.
.	.	.	16A/JJ	.	16f#/JJ	.	.	.	.	.	.	.	.	.	.	.
!	!	!	!	!	!	!	!	!	!	!	!LO:LB:g=original	!	!	!	!	!
=118	=118	=118	=118	=118	=118	=118	=118	=118	=118	=118	=118	=118	=118	=118	=118	=118
!LO:TX:a:t=P:problem=mixed beam	!	!	!	!	!	!	!	!	!	!	!	!	!	!	!	!
.	.	.	8qqA/	.	8qqf#/	.	.	.	.	.	.	.	.	.	.	.
8GG/L	.	4.ryy	4B-X/	.	4g/	.	4g\	-li	(8G'/L	.	8g\L	.	.	.	.	.
8G\	.	.	.	.	.	.	.	.	8G'/	.	8g\	.	.	.	.	.
8GG/J	.	.	16B-/LL	.	16g/LL	.	8r	.	8G'/J)	.	8g\J	.	.	.	.	.
.	.	.	16c/JJ	.	16a/JJ	.	.	.	.	.	.	.	.	.	.	.
=119	=119	=119	=119	=119	=119	=119	=119	=119	=119	=119	=119	=119	=119	=119	=119	=119
!LO:TX:a:t=P:problem=mixed beam	!	!	!	!	!LO:SIC:v:s=8b-	!	!LO:TX:a:t=4.	!	!	!	!	!	!	!	!	!
!	!	!	!	!	!	!	!LO:N:vis=00	!	!	!	!	!	!LO:N:vis=00	!	!LO:N:vis=00	!
8GG/L	.	4.ryy	8d/L	.	8b/L	.	1.r	.	(8G'/L	.	8g\L	.	1.r	.	1.r	.
8G\	.	.	8d/J	.	8b/J	.	.	.	8G'/	.	8g\	.	.	.	.	.
8GG/J	.	.	16d/LL	.	16b/LL	.	.	.	8G'/J)	.	8g\J	.	.	.	.	.
.	.	.	16c/JJ	.	16a/JJ	.	.	.	.	.	.	.	.	.	.	.
!LO:LB:g=original	!	!	!LO:LB:g=original	!	!	!	!	!	!	!	!	!	!	!	!	!
=120	=120	=120	=120	=120	=120	=120	=120	=120	=120	=120	=120	=120	=120	=120	=120	=120
!LO:TX:a:t=P:problem=mixed beam	!	!	!	!	!	!	!	!	!	!	!	!	!	!	!	!
8GG/L	.	4.ryy	8B-X/L	.	8g/L	.	.	.	(8G'/L	.	8g\L	.	.	.	.	.
8G\	.	.	8B-/J	.	8g/J	.	.	.	8G'/	.	8g\	.	.	.	.	.
8GG/J	.	.	16B-/LL	.	16g/LL	.	.	.	8G'/J)	.	8g\J	.	.	.	.	.
.	.	.	16c/JJ	.	16a/JJ	.	.	.	.	.	.	.	.	.	.	.
!	!	!	!	!	!LO:LB:g=original	!	!	!	!	!	!	!	!	!	!	!
=121	=121	=121	=121	=121	=121	=121	=121	=121	=121	=121	=121	=121	=121	=121	=121	=121
!LO:TX:a:t=P:problem=mixed beam	!	!	!	!	!	!	!	!	!	!	!	!	!	!	!	!
8GG/L	.	4.ryy	8d/L	.	8b-X/L	.	.	.	(8G'/L	.	8g\L	.	.	.	.	.
8G\	.	.	16d/L	.	16b-/L	.	.	.	8G'/	.	8g\	.	.	.	.	.
.	.	.	16c/	.	16a/	.	.	.	.	.	.	.	.	.	.	.
!	!	!	!	!	!	!	!	!	!LO:TX:a:t=g	!	!	!	!	!	!	!
8D/J	.	.	16B/	.	16g/	.	.	.	8d' 8B/J)	.	8a\J	.	.	.	.	.
.	.	.	16A/JJ	.	16f#/JJ	.	.	.	.	.	.	.	.	.	.	.
=122	=122	=122	=122	=122	=122	=122	=122	=122	=122	=122	=122	=122	=122	=122	=122	=122
!	!	!	!	!	!	!	!	!	!LO:TX:a:t=c	!LO:DY:t=f&colon;	!	!LO:DY:t=f&colon;	!	!	!	!
4GG/	.	4.ryy	4B-X/	.	4g/	.	.	.	4G/	f	4g\	f	.	.	.	.
8G\	.	.	8bn\	.	8dd\	.	.	.	8r	.	8r	.	.	.	.	.
=123	=123	=123	=123	=123	=123	=123	=123	=123	=123	=123	=123	=123	=123	=123	=123	=123
!	!	!	!	!	!	!	!	!	!LO:TX:a:t=4	!	!	!	!	!	!	!
!	!	!	!	!	!	!	!	!	!LO:N:vis=00	!	!LO:N:vis=00	!	!LO:N:vis=00	!	!LO:N:vis=00	!
8G\L	.	4.ryy	8b\L	.	8dd\L	.	8dd\	Sa-	1.r	.	1.r	.	1.r	.	1.r	.
8G\	.	.	8b\	.	8dd\	.	16ffn\LL	-lve	.	.	.	.	.	.	.	.
.	.	.	.	.	.	.	16dd\JJ	.	.	.	.	.	.	.	.	.
8G\J	.	.	8b\J	.	8dd\J	.	16ff\LL	te	.	.	.	.	.	.	.	.
.	.	.	.	.	.	.	16dd\JJ	.	.	.	.	.	.	.	.	.
=124	=124	=124	=124	=124	=124	=124	=124	=124	=124	=124	=124	=124	=124	=124	=124	=124
!LO:TX:a:t=P:problem=mixed beam	!	!	!	!	!	!	!	!	!	!	!	!	!	!	!	!
8C/L	.	4.ryy	8g\L	.	8ee\L	.	16ff#\	dul-	.	.	.	.	.	.	.	.
.	.	.	.	.	.	.	16ee\	-ces	.	.	.	.	.	.	.	.
8C/	.	.	8g\	.	8ee\	.	16dd\LL	o-	.	.	.	.	.	.	.	.
.	.	.	.	.	.	.	16cc\JJ	.	.	.	.	.	.	.	.	.
!	!	!	!	!	!	!	!LO:SIC:v:l:s=-ce-	!	!	!	!	!	!	!	!	!
8A\J	.	.	8cc#X\J	.	8ee\J	.	16bn\	-cel-	.	.	.	.	.	.	.	.
!	!	!	!	!	!	!	!LO:SIC:v:l:s=li	!	!	!	!	!	!	!	!	!
.	.	.	.	.	.	.	16cc\	-lo	.	.	.	.	.	.	.	.
=125	=125	=125	=125	=125	=125	=125	=125	=125	=125	=125	=125	=125	=125	=125	=125	=125
8A\L	.	4.ryy	8cc\L	.	8ee\L	.	8ee\	Sal-	.	.	.	.	.	.	.	.
8A\	.	.	8cc\	.	8ee\	.	16gg\LL	-ve	.	.	.	.	.	.	.	.
.	.	.	.	.	.	.	16ee\JJ	.	.	.	.	.	.	.	.	.
8A\J	.	.	8cc\J	.	8ee\J	.	16gg\LL	os	.	.	.	.	.	.	.	.
.	.	.	.	.	.	.	16ee\JJ	.	.	.	.	.	.	.	.	.
!	!	!	!	!	!	!	!LO:LB:g=original	!	!	!	!	!	!	!	!	!
=126	=126	=126	=126	=126	=126	=126	=126	=126	=126	=126	=126	=126	=126	=126	=126	=126
8D/L	.	4.ryy	8a/L	.	8ff#X\L	.	16gg\	Sua-	.	.	.	.	.	.	.	.
.	.	.	.	.	.	.	16ff#\	-ve	.	.	.	.	.	.	.	.
8D/	.	.	8a/J	.	8ff#\J	.	16ee\LL	Pu-	.	.	.	.	.	.	.	.
.	.	.	.	.	.	.	16dd\JJ	.	.	.	.	.	.	.	.	.
8AA/J	.	.	(16g/LL	.	(16b\LL	.	16cc#X\	-el-	.	.	.	.	.	.	.	.
.	.	.	16b/JJ)	.	16dd\JJ)	.	16dd\	-li	.	.	.	.	.	.	.	.
=127	=127	=127	=127	=127	=127	=127	=127	=127	=127	=127	=127	=127	=127	=127	=127	=127
8D/L	.	4.ryy	8a/L	.	(8ccn\L	.	4ccn\	Sal-	8r	.	8r	.	8r	.	8r	.
8D/	.	.	8cn/	.	8a\	.	.	.	8r	.	8r	.	8r	.	8r	.
8D/J	.	.	8A/J	.	8f#\J)	.	8a\	-ve	8d/	.	8a\	.	8ff#\	.	8ccc\	.
=128	=128	=128	=128	=128	=128	=128	=128	=128	=128	=128	=128	=128	=128	=128	=128	=128
.	.	.	.	.	.	.	.	.	.	.	.	.	8qqff#/	.	8qqccc/	.
8GG/	.	4.ryy	8B/L|	.	8g'\L	.	8g\	te	4g\	.	4b\	.	4gg\	.	4bb\	.
8r	.	.	8g/|	.	8b'\	.	8b\	dul-	.	.	.	.	.	.	.	.
!	!	!	!	!	!	!	!LO:SIC:v:l:s=-ces	!	!	!	!	!	!	!	!	!
8GG/	.	.	8b/J|	.	8dd'\J	.	8dd\	-ce	8r	.	8r	.	8r	.	8r	.
=129	=129	=129	=129	=129	=129	=129	=129	=129	=129	=129	=129	=129	=129	=129	=129	=129
!	!	!	!	!	!	!	!LO:SIC:v:l:s=0-	!	!	!	!	!	!	!	!	!
8D/L	.	4.ryy	8a/L	.	(8cc\L	.	4cc\	oc-	8r	.	8r	.	8r	.	8r	.
8D/	.	.	8c/	.	8a\	.	.	.	8r	.	8r	.	8r	.	8r	.
.	.	.	.	.	.	.	.	.	.	.	.	.	.	.	8qqddd/	.
!	!	!	!	!	!	!	!LO:SIC:v:l:s=-ce-	!	!	!	!	!	!	!	!	!
8D/J	.	.	8A/J	.	8f#\J)	.	8a\	-cel-	8d/	.	8a\	.	8ff#\	.	8ccc\	.
!	!	!	!	!	!	!	!	!	!LO:LB:g=original	!	!	!	!	!	!	!
=130	=130	=130	=130	=130	=130	=130	=130	=130	=130	=130	=130	=130	=130	=130	=130	=130
.	.	.	8qqA/	.	8qqf#/	.	.	.	.	.	.	.	8qqff#/	.	8qqccc/	.
8GG/	.	4.ryy	4B/	.	4g/	.	4g\	-li	4g\	.	4b\	.	4gg\	.	4bb\	.
8r	.	.	.	.	.	.	.	.	.	.	.	.	.	.	.	.
8GG/	.	.	(16g/LL	.	16b\LL	.	8r	.	8r	.	8r	.	8r	.	8r	.
.	.	.	16b/JJ)	.	16dd\JJ	.	.	.	.	.	.	.	.	.	.	.
=131	=131	=131	=131	=131	=131	=131	=131	=131	=131	=131	=131	=131	=131	=131	=131	=131
8D\L	.	4.ryy	(8a/L	.	(8cc\L	.	4cc\	Sal-	8r	.	8r	.	8r	.	8r	.
8D\	.	.	8c/	.	8a\	.	.	.	8r	.	8r	.	8r	.	8r	.
8D\J	.	.	8A/J)	.	8f#\J)	.	8ff#\	-ve	8d/	.	8a\	.	8aa\	.	8ccc\	.
!	!	!	!	!	!	!	!	!	!	!	!	!	!LO:LB:g=original	!	!	!
=132	=132	=132	=132	=132	=132	=132	=132	=132	=132	=132	=132	=132	=132	=132	=132	=132
.	.	.	.	.	.	.	.	.	.	.	.	.	8qqaa/	.	8qqccc/	.
8GG/	.	4.ryy	8B/L	.	8g\L	.	8gg\	os	4g\	.	4b\	.	4gg\	.	4bb\	.
8r	.	.	8g/	.	8b\	.	8b\	Sua-	.	.	.	.	.	.	.	.
8GG/	.	.	8b/J	.	8dd\J	.	8dd\	-ve	8r	.	8r	.	8r	.	8r	.
=133	=133	=133	=133	=133	=133	=133	=133	=133	=133	=133	=133	=133	=133	=133	=133	=133
.	.	.	8qqb/	.	8qqdd/	.	.	.	.	.	.	.	.	.	.	.
8D\L	.	4.ryy	8a/L	.	(8cc\L	.	4cc\	pu-	8r	.	8r	.	8r	.	8r	.
8D\	.	.	8c/	.	8a\	.	.	.	8r	.	8r	.	8r	.	8r	.
8D\J	.	.	8A/J	.	8f#\J)	.	8a\	-el-	8d/	.	8a\	.	8aa\	.	8ccc\	.
!LO:LB:g=original	!	!	!	!	!	!	!	!	!	!	!	!	!	!	!	!
=134	=134	=134	=134	=134	=134	=134	=134	=134	=134	=134	=134	=134	=134	=134	=134	=134
!LO:TX:a:t=P:problem=mixed beam	!	!	!	!	!	!	!	!	!	!	!	!	!	!	!	!
.	.	.	8qqA/	.	8qqf#/	.	.	.	.	.	.	.	8qqaa/	.	8qqccc/	.
8GG/L	.	4.ryy	4B/	.	4g/	.	4g\	-li	4g\	.	4b\	.	4gg\	.	4bb\	.
8G\	.	.	.	.	.	.	.	.	.	.	.	.	.	.	.	.
8G\J	.	.	(16b\LL	.	(16gg\LL	.	8ee\	Sal-	8r	.	8r	.	8r	.	8r	.
.	.	.	16cc\JJ)	.	16ee\JJ)	.	.	.	.	.	.	.	.	.	.	.
!	!	!	!	!	!	!	!LO:LB:g=original	!	!	!	!	!	!	!	!	!
=135	=135	=135	=135	=135	=135	=135	=135	=135	=135	=135	=135	=135	=135	=135	=135	=135
.	.	.	8qqcc/	.	8qqee/	.	.	.	.	.	.	.	.	.	.	.
!	!	!	!	!	!	!	!	!	!LO:N:vis=0	!	!LO:N:vis=0	!	!LO:N:vis=0	!	!LO:N:vis=0	!
8G\L	.	4.ryy	8b\L	.	8dd\L	.	8dd\	-ve	2.r	.	2.r	.	2.r	.	2.r	.
8G\	.	.	8b\J	.	8dd\J	.	8dd\	te	.	.	.	.	.	.	.	.
8G\J	.	.	(16b\LL	.	(16gg\LL	.	16gg\LL	dul-	.	.	.	.	.	.	.	.
.	.	.	16cc\JJ)	.	16ee\JJ)	.	16ee\JJ	.	.	.	.	.	.	.	.	.
=136	=136	=136	=136	=136	=136	=136	=136	=136	=136	=136	=136	=136	=136	=136	=136	=136
8G\L	.	4.ryy	8b\L	.	8dd\L	.	8dd\	-ces	.	.	.	.	.	.	.	.
8G\	.	.	8b\J	.	8dd\J	.	8dd\	o-	.	.	.	.	.	.	.	.
!	!	!	!	!	!	!	!LO:SIC:v:l:s=-ce-	!	!	!	!	!	!	!	!	!
8C\J	.	.	16cc\LL	.	(16ee\LL	.	16ee\LL	-cel-	.	.	.	.	.	.	.	.
.	.	.	16a\JJ	.	16cc\JJ)	.	16cc\JJ	.	.	.	.	.	.	.	.	.
!	!	!	!	!	!LO:LB:g=original	!	!	!	!	!	!	!	!	!	!	!
=137	=137	=137	=137	=137	=137	=137	=137	=137	=137	=137	=137	=137	=137	=137	=137	=137
.	.	.	.	.	8qqcc/	.	.	.	.	.	.	.	.	.	.	.
8D\L	.	4.ryy	8d/L	.	8b\L	.	4b\	.	4.r	.	4.r	.	4.r	.	4.r	.
8D\	.	.	8d/J	.	8b\J	.	.	.	.	.	.	.	.	.	.	.
8D\J	.	.	16e/LL	.	(16cc\LL	.	(16cc\LL	.	.	.	.	.	.	.	.	.
.	.	.	16c/JJ	.	16a\JJ)	.	16a\JJ)	.	.	.	.	.	.	.	.	.
=138	=138	=138	=138	=138	=138	=138	=138	=138	=138	=138	=138	=138	=138	=138	=138	=138
!LO:TX:a:t=P:problem=mixed beam	!	!	!	!	!	!	!	!	!	!	!	!	!	!	!	!
.	.	.	8qqc/	.	8qqa/	.	.	.	.	.	.	.	.	.	.	.
8GG/L	.	4.ryy	4B/	.	4g/	.	4g\	-li	8r	.	8r	.	8r	.	8r	.
8G\	.	.	.	.	.	.	.	.	8r	.	8r	.	8r	.	8r	.
!	!	!	!	!	!	!	!	!	!	!	!LO:LB:g=original	!	!	!	!	!
8G\J	.	.	(16b\LL	.	(16gg\LL	.	16gg\	Sal-	(16b\LL	.	16dd\LL	.	(16b\LL	.	(16gg\LL	.
.	.	.	16cc\JJ)	.	16ee\JJ)	.	16ee\	-ve	16cc\JJ)	.	16ee\JJ	.	16cc\JJ)	.	16ee\JJ)	.
=139	=139	=139	=139	=139	=139	=139	=139	=139	=139	=139	=139	=139	=139	=139	=139	=139
.	.	.	8qqcc/	.	8qqee/	.	.	.	.	.	.	.	.	.	.	.
8G\L	.	4.ryy	8b\L	.	8dd\L	.	4dd\	os	8b\L	.	8dd\L	.	8b\L	.	8dd\L	.
8G\	.	.	8b\J	.	8dd\J	.	.	.	8b\J	.	8dd\	.	8b\J	.	8dd\J	.
8G\J	.	.	(16b\LL	.	(16gg\LL	.	16gg\	Sua-	(16b\LL	.	16dd\L	.	(16b\LL	.	16gg\LL	.
.	.	.	16cc\JJ)	.	16ee\JJ)	.	16ee\	-ve	16cc\JJ)	.	16ee\JJ	.	16cc\JJ)	.	16ee\JJ	.
!	!	!	!	!	!	!	!	!	!	!	!	!	!	!	!LO:LB:g=original	!
=140	=140	=140	=140	=140	=140	=140	=140	=140	=140	=140	=140	=140	=140	=140	=140	=140
8G\L	.	4.ryy	8b\L	.	8dd\L	.	4dd\	Pu-	8b\L	.	8dd\L	.	8b\L	.	8dd\L	.
8G\	.	.	8b\J	.	8dd\J	.	.	.	8b\	.	8dd\	.	8b\J	.	8dd\J	.
8D\J	.	.	(16cc\LL	.	(16ee\LL	.	16ee\LL	.	8a\J	.	8cc\J	.	(16cc\LL	.	(16ee\LL	.
.	.	.	16a\JJ)	.	16cc\JJ)	.	16cc\JJ	.	.	.	.	.	16a\JJ)	.	16cc\JJ)	.
!	!	!	!LO:LB:g=original	!	!	!	!	!	!	!	!	!	!	!	!	!
=141	=141	=141	=141	=141	=141	=141	=141	=141	=141	=141	=141	=141	=141	=141	=141	=141
8D\L	.	4.ryy	8d/L	.	8b\L	.	4b\	.	8g\L	.	8b\L	.	8dd\L	.	8b\L	.
8D\	.	.	8d/J	.	8b\J	.	.	.	8g\	.	8b\	.	8dd\J	.	8b\J	.
8D\J	.	.	16e/LL	.	(16cc\LL	.	16cc\LL	.	8d\J	.	8a\J	.	(16ee\LL	.	16cc\LL	.
!	!	!	!	!	!	!	!LO:SIC:v:l:s=-el-	!	!	!	!	!	!	!	!	!
.	.	.	16c/JJ	.	16a\JJ)	.	16a\JJ	pu-	.	.	.	.	16cc\JJ)	.	16a\JJ	.
=142	=142	=142	=142	=142	=142	=142	=142	=142	=142	=142	=142	=142	=142	=142	=142	=142
.	.	.	8qqc/	.	8qqa/	.	.	.	.	.	.	.	8qqcc/	.	8qqa/	.
8GG/L	.	4.ryy	4B/	.	4g/	.	4g\	-li	4B/	.	4g\	.	4b\	.	4g/	.
8GG/	.	.	.	.	.	.	.	.	.	.	.	.	.	.	.	.
8GG/J	.	.	16d/LL	.	16b/LL	.	8r	.	8r	.	8r	.	8r	.	8r	.
.	.	.	16A/JJ	.	16f#/JJ	.	.	.	.	.	.	.	.	.	.	.
=143	=143	=143	=143	=143	=143	=143	=143	=143	=143	=143	=143	=143	=143	=143	=143	=143
!	!	!	!	!	!	!	!LO:TX:a:t=1	!	!	!	!	!	!LO:TX:a:t=P:problem=zamazane pauzy, wpisano na podstawie fl I	!	!	!
.	.	.	.	.	8qqf#/	.	.	.	.	.	.	.	.	.	.	.
!	!	!	!	!	!	!	!	!	!LO:N:vis=00	!	!LO:N:vis=00	!	!LO:N:vis=00	!	!LO:N:vis=00	!
8GG/L	.	4.ryy	4B/	.	4g/	.	4.r	.	1.r	.	1.r	.	1.r	.	1.r	.
8GG/	.	.	.	.	.	.	.	.	.	.	.	.	.	.	.	.
8GG/J	.	.	16g/LL	.	(16b/LL	.	.	.	.	.	.	.	.	.	.	.
.	.	.	16b/JJ	.	16dd/JJ)	.	.	.	.	.	.	.	.	.	.	.
!	!	!	!	!	!	!	!LO:LB:g=original	!	!	!	!	!	!	!	!	!
=144	=144	=144	=144	=144	=144	=144	=144	=144	=144	=144	=144	=144	=144	=144	=144	=144
.	.	.	8qqb/	.	8qqdd/	.	.	.	.	.	.	.	.	.	.	.
8D\L	.	4.ryy	4a/	.	4cc\	.	(8cc\L	Li-	.	.	.	.	.	.	.	.
8D\	.	.	.	.	.	.	8a\	-li-	.	.	.	.	.	.	.	.
8D\J	.	.	16c/LL	.	(16a\LL	.	8f#\J)	.	.	.	.	.	.	.	.	.
.	.	.	16A/JJ	.	16f#\JJ)	.	.	.	.	.	.	.	.	.	.	.
=145	=145	=145	=145	=145	=145	=145	=145	=145	=145	=145	=145	=145	=145	=145	=145	=145
.	.	.	8qqA/	.	.	.	.	.	.	.	.	.	.	.	.	.
8GG/L	.	4.ryy	4B/	.	4g/	.	4g\	-o	.	.	.	.	.	.	.	.
8GG/	.	.	.	.	.	.	.	.	.	.	.	.	.	.	.	.
8GG/J	.	.	(16g/LL	.	16b/LL	.	8r	.	.	.	.	.	.	.	.	.
.	.	.	16b/JJ)	.	16dd/JJ	.	.	.	.	.	.	.	.	.	.	.
=146	=146	=146	=146	=146	=146	=146	=146	=146	=146	=146	=146	=146	=146	=146	=146	=146
.	.	.	8qqb/	.	8qqdd/	.	.	.	.	.	.	.	.	.	.	.
8D\L	.	4.ryy	4a/	.	4cc\	.	8cc\	di-	.	.	.	.	.	.	.	.
8D\	.	.	.	.	.	.	8a\	-lec-	.	.	.	.	.	.	.	.
8D\J	.	.	16c/LL	.	(16a\LL	.	8f#\	-te	.	.	.	.	.	.	.	.
.	.	.	16A/JJ	.	16f#\JJ)	.	.	.	.	.	.	.	.	.	.	.
=147	=147	=147	=147	=147	=147	=147	=147	=147	=147	=147	=147	=147	=147	=147	=147	=147
!	!	!	!	!	!	!	!	!	!LO:N:vis=0	!	!LO:N:vis=0	!	!LO:N:vis=0	!	!LO:N:vis=0	!
8GG/L	.	4.ryy	8B/L	.	8g/L	.	8g\L	fi-	2.r	.	2.r	.	2.r	.	2.r	.
8C#X/	.	.	8g/	.	8b/	.	8b\	.	.	.	.	.	.	.	.	.
8C#/J	.	.	8g/J	.	8b/J	.	8dd\J	.	.	.	.	.	.	.	.	.
=148	=148	=148	=148	=148	=148	=148	=148	=148	=148	=148	=148	=148	=148	=148	=148	=148
4.D;/	.	4.ryy	4.g;/	.	4.b;\	.	8gg\L	.	.	.	.	.	.	.	.	.
.	.	.	.	.	.	.	8b\J	.	.	.	.	.	.	.	.	.
.	.	.	.	.	.	.	8b\	.	.	.	.	.	.	.	.	.
=149	=149	=149	=149	=149	=149	=149	=149	=149	=149	=149	=149	=149	=149	=149	=149	=149
4.D;/	.	4.ryy	4.f#;/	.	4.a;/	.	4.a;\	-li-	4.r;	.	4.r;	.	4.r	.	4.r;	.
!LO:LB:g=original	!	!	!	!	!	!	!	!	!	!	!	!	!	!	!	!
=150	=150	=150	=150	=150	=150	=150	=150	=150	=150	=150	=150	=150	=150	=150	=150	=150
!	!	!	!	!LO:DY:a	!	!LO:DY:a:t=f	!	!	!	!LO:DY:rj:t=f	!	!	!	!LO:DY:a:t=fo	!	!
8GG/L	.	4.ryy	4.B/	f	4.g/	f	4g\	-o	8r	f	8r	.	4.b\	f	4.gg\	.
!	!	!	!	!	!	!	!	!	!	!	!	!LO:DY:a	!	!	!	!
8G/	.	.	.	.	.	.	.	.	8B/L	.	8g\L	f	.	.	.	.
8G/J	.	.	.	.	.	.	8r	.	8B/J	.	8g\J	.	.	.	.	.
=151	=151	=151	=151	=151	=151	=151	=151	=151	=151	=151	=151	=151	=151	=151	=151	=151
!	!	!	!	!	!	!	!LO:N:vis=00	!	!	!	!	!	!	!	!	!
8GG/L	.	4.ryy	4.g/	.	4.b\	.	1.r	.	8r	.	8r	.	4.gg\	.	4.bb\	.
8G/	.	.	.	.	.	.	.	.	8g\L	.	8b\L	.	.	.	.	.
8G/J	.	.	.	.	.	.	.	.	8g\J	.	8b\J	.	.	.	.	.
!	!	!	!	!	!	!	!	!	!LO:LB:g=original	!	!	!	!	!	!	!
=152	=152	=152	=152	=152	=152	=152	=152	=152	=152	=152	=152	=152	=152	=152	=152	=152
8GG/L	.	4.ryy	8b\L	.	8dd\L	.	.	.	8b\L	.	8dd\L	.	8bb\L	.	8ddd\L	.
8G/	.	.	16b\L	.	16dd\L	.	.	.	8b\	.	8dd\	.	16bb\L	.	16ddd\L	.
.	.	.	16g\	.	16b\	.	.	.	.	.	.	.	16gg\	.	16bb\	.
8G/J	.	.	16a\	.	16cc\	.	.	.	8cc\J	.	8ee\J	.	16aa\	.	16ccc\	.
.	.	.	16cc\JJ	.	16ee\JJ	.	.	.	.	.	.	.	16ccc\JJ	.	16eee\JJ	.
=153	=153	=153	=153	=153	=153	=153	=153	=153	=153	=153	=153	=153	=153	=153	=153	=153
.	.	.	8qqcc/	.	8qqee/	.	.	.	8qqcc/	.	8qqee/	.	8qqccc/	.	8qqeee/	.
8GG/L	.	4.ryy	4.b\	.	4.dd\	.	.	.	4.b\	.	4.dd\	.	4.bb\	.	4.ddd\	.
8G/	.	.	.	.	.	.	.	.	.	.	.	.	.	.	.	.
8G/J	.	.	.	.	.	.	.	.	.	.	.	.	.	.	.	.
=154	=154	=154	=154	=154	=154	=154	=154	=154	=154	=154	=154	=154	=154	=154	=154	=154
4GG/	.	4.ryy	4d/	.	16g/LL	.	.	.	8g\L	.	8b\L	.	8bb\L	.	16ggg\LL	.
.	.	.	.	.	16d/	.	.	.	.	.	.	.	.	.	16ddd\JJ	.
.	.	.	.	.	16b/	.	.	.	8g\	.	8b\	.	8bb\	.	4ddd\	.
.	.	.	.	.	16d/	.	.	.	.	.	.	.	.	.	.	.
8D/	.	.	8f#/	.	16a/	.	.	.	8d\J	.	8a\J	.	8aa\J	.	.	.
.	.	.	.	.	16d/JJ	.	.	.	.	.	.	.	.	.	.	.
!	!	!	!	!	!LO:LB:g=original	!	!	!	!	!	!	!	!	!	!	!
=155	=155	=155	=155	=155	=155	=155	=155	=155	=155	=155	=155	=155	=155	=155	=155	=155
!	!	!	!	!	!	!	!LO:N:vis=00	!	!	!	!	!	!	!	!	!
4G\	.	4.ryy	4d/	.	(16g/LL	.	1.r	.	8G/L	.	8b\L	.	8bb\L	.	16ggg\LL	.
.	.	.	.	.	16d/)	.	.	.	.	.	.	.	.	.	16ddd\JJ	.
.	.	.	.	.	(16b/	.	.	.	8G/	.	8b\	.	8bb\	.	4ddd\	.
.	.	.	.	.	16d/)	.	.	.	.	.	.	.	.	.	.	.
8D\	.	.	8f#/	.	(16a/	.	.	.	8d/J	.	8a\J	.	8aa\J	.	.	.
.	.	.	.	.	16d/JJ)	.	.	.	.	.	.	.	.	.	.	.
!	!	!	!	!	!	!	!	!	!	!	!	!	!LO:LB:g=original	!	!	!
=156	=156	=156	=156	=156	=156	=156	=156	=156	=156	=156	=156	=156	=156	=156	=156	=156
!LO:TX:a:t=P:problem=mixed beam	!	!	!	!	!	!	!	!	!	!	!	!	!	!	!	!
8GG/L	.	4.ryy	(16g/LL	.	(16b\LL	.	.	.	8g\L	.	8b\L	.	(16gg\LL	.	16bb\LL	.
.	.	.	16b/JJ)	.	16dd\)	.	.	.	.	.	.	.	16bb\JJ)	.	16ddd\	.
8G\	.	.	(16g/LL	.	(16b\	.	.	.	8g\J	.	8b\J	.	(16gg\LL	.	16bb\	.
.	.	.	16B/JJ)	.	16g\)	.	.	.	.	.	.	.	16b\JJ)	.	16gg\	.
8D/J	.	.	(16c/LL	.	(16a\	.	.	.	16d/LL	.	16a\LL	.	(16cc\LL	.	16aa\	.
.	.	.	16A/JJ)	.	16f#\JJ)	.	.	.	16d/JJ	.	16a\JJ	.	16a\JJ)	.	16ff#\JJ	.
=157	=157	=157	=157	=157	=157	=157	=157	=157	=157	=157	=157	=157	=157	=157	=157	=157
!LO:TX:a:t=P:problem=mixed beam	!	!	!	!	!	!	!	!	!	!	!	!	!	!	!	!
.	.	.	.	.	8qqf#/	.	.	.	.	.	.	.	8qqa/	.	8qqff#/	.
8GG/L	.	4.ryy	4B/	.	4g/	.	.	.	4B/	.	4g\	.	4b\	.	4gg\	.
8G\	.	.	.	.	.	.	.	.	.	.	.	.	.	.	.	.
8G\J	.	.	(16b\LL	.	(16gg\LL	.	.	.	8cc\	.	8ee\	.	(16b\LL	.	(16gg\LL	.
.	.	.	16cc\JJ)	.	16ee\JJ)	.	.	.	.	.	.	.	16cc\JJ)	.	16ee\JJ)	.
=158	=158	=158	=158	=158	=158	=158	=158	=158	=158	=158	=158	=158	=158	=158	=158	=158
.	.	.	8qqcc/	.	8qqee/	.	.	.	.	.	.	.	.	.	8qqee/	.
8G\L	.	4.ryy	8b\L	.	8dd\L	.	.	.	8b\L	.	8dd\L	.	8b\L	.	8dd\L	.
8G\	.	.	8b\J	.	8dd\J	.	.	.	8b\	.	8dd\	.	8b\J	.	8dd\J	.
8G\J	.	.	(16b\LL	.	(16gg\LL	.	.	.	8cc\J	.	8ee\J	.	(16b\LL	.	16gg\LL	.
.	.	.	16cc\JJ)	.	16ee\JJ)	.	.	.	.	.	.	.	16cc\JJ)	.	16ee\JJ	.
!	!	!	!	!	!	!	!	!	!	!	!LO:LB:g=original	!	!	!	!	!
=159	=159	=159	=159	=159	=159	=159	=159	=159	=159	=159	=159	=159	=159	=159	=159	=159
!	!	!	!	!	!	!	!LO:N:vis=00	!	!	!	!	!	!	!	!	!
8G\L	.	4.ryy	8b\L	.	8dd\L	.	1.r	.	8b\L	.	8dd\L	.	8b\L	.	8dd\L	.
8G\	.	.	8b\J	.	8dd\J	.	.	.	8b\	.	8dd\	.	8b\J	.	8dd\J	.
!	!	!	!	!	!	!	!	!	!	!	!	!	!	!	!LO:LB:g=original	!
8C\J	.	.	(16cc\LL	.	(16ee\LL	.	.	.	8a\J	.	8cc\J	.	(16cc\LL	.	16ee\LL	.
.	.	.	16a\JJ)	.	16cc\JJ)	.	.	.	.	.	.	.	16a\JJ)	.	16cc\JJ	.
=160	=160	=160	=160	=160	=160	=160	=160	=160	=160	=160	=160	=160	=160	=160	=160	=160
!	!	!	!	!	!	!	!	!	!	!	!	!LO:DY:t=f&colon;	!	!	!	!
8D\L	.	4.ryy	8d/L	.	8b\L	.	.	.	8g\L	.	8b\L	f	8dd\L	.	8b\L	.
8D\	.	.	8d/J	.	8b\J	.	.	.	8g\J	.	8b\J	.	8dd\J	.	8b\J	.
8D\J	.	.	16e/LL	.	(16cc\LL	.	.	.	16d/LL	.	16a\LL	.	(16ee\LL	.	(16cc\LL	.
.	.	.	16c/JJ	.	16a\JJ)	.	.	.	16d/JJ	.	16a\JJ	.	16cc\JJ)	.	16a\JJ)	.
=161	=161	=161	=161	=161	=161	=161	=161	=161	=161	=161	=161	=161	=161	=161	=161	=161
!LO:TX:a:t=P:problem=mixed beam	!	!	!	!LO:DY:a:t=Pia	!	!	!	!	!LO:TX:a:t=P:problem=takty 161-164 zapisane repetycją	!	!	!	!	!	!	!
.	.	.	8qqc/	p	8qqa/	.	.	.	.	.	.	.	8qqcc/	.	8qqa/	.
!	!LO:DY:t=p&colon;	!	!	!	!	!	!	!	!	!	!	!LO:DY:t=p&colon;	!	!LO:DY:a:t=p	!	!LO:DY:a:t=p
8GG/L	p	4.ryy	4B/	.	4g/	.	.	.	4B/yy	.	4g\	p	4b\	p	4g/	p
8G\	.	.	.	.	.	.	.	.	.	.	.	.	.	.	.	.
!	!	!	!	!	!	!LO:DY:a	!	!	!	!	!	!	!	!	!	!
8G\J	.	.	(16b\LL	.	16gg\LL	p	.	.	8cc\yy	.	8ee\	.	(16b\LL	.	(16gg\LL	.
.	.	.	16cc\JJ)	.	16ee\JJ	.	.	.	.	.	.	.	16cc\JJ)	.	16ee\JJ)	.
!	!	!	!LO:LB:g=original	!	!	!	!	!	!	!	!	!	!	!	!	!
=162	=162	=162	=162	=162	=162	=162	=162	=162	=162	=162	=162	=162	=162	=162	=162	=162
.	.	.	.	.	8qqee/	.	.	.	.	.	.	.	.	.	8qqee/	.
8G\L	.	4.ryy	8b\L	.	8dd\L	.	.	.	8b\Lyy	.	8dd\L	.	8b\L	.	8dd\L	.
8G\	.	.	8b\J	.	8dd\J	.	.	.	8b\yy	.	8dd\	.	8b\J	.	8dd\J	.
8G\J	.	.	(16b\LL	.	(16gg\LL	.	.	.	8cc\Jyy	.	8ee\J	.	(16b\LL	.	(16gg\LL	.
.	.	.	16cc\JJ)	.	16dd\JJ)	.	.	.	.	.	.	.	16cc\JJ)	.	16ee\JJ)	.
=163	=163	=163	=163	=163	=163	=163	=163	=163	=163	=163	=163	=163	=163	=163	=163	=163
.	.	.	.	.	8qqee/	.	.	.	.	.	.	.	.	.	.	.
!	!	!	!	!	!	!	!LO:N:vis=00	!	!	!	!	!	!	!	!	!
8G\L	.	4.ryy	8b\L	.	8dd\L	.	1.r	.	8b\Lyy	.	8dd\L	.	8b\L	.	8dd\L	.
8G\	.	.	8b\J	.	8dd\J	.	.	.	8b\yy	.	8dd\	.	8b\J	.	8dd\J	.
8C\J	.	.	(16cc\LL	.	(16ee\LL	.	.	.	8a\Jyy	.	8cc\J	.	(16cc\LL	.	16ee\LL	.
.	.	.	16a\JJ)	.	16cc\JJ)	.	.	.	.	.	.	.	16a\JJ)	.	16cc\JJ	.
=164	=164	=164	=164	=164	=164	=164	=164	=164	=164	=164	=164	=164	=164	=164	=164	=164
8D\L	.	4.ryy	8d/L	.	8b\L	.	.	.	8g/Lyy	.	8b\L	.	8dd\L	.	8b\L	.
8D\	.	.	8d/J	.	8b\J	.	.	.	8g/yy	.	8b\J	.	8dd\J	.	8b\J	.
8D\J	.	.	(16e/LL	.	(16cc\LL	.	.	.	16d/Lyy	.	16a\LL	.	16ee\LL	.	16cc\LL	.
.	.	.	16c/JJ)	.	16a\JJ)	.	.	.	16d/JJyy	.	16a\JJ	.	16cc\JJ	.	16a\JJ	.
!LO:LB:g=original	!	!	!	!	!	!	!	!	!	!	!	!	!	!	!	!
=165	=165	=165	=165	=165	=165	=165	=165	=165	=165	=165	=165	=165	=165	=165	=165	=165
.	.	.	8qqc/	.	8qqa/	.	.	.	.	.	.	.	8qqcc/	.	8qqa/	.
!	!LO:DY:t=f&colon;	!	!	!	!	!	!	!	!	!LO:DY:rj:t=f	!	!LO:DY:t=f&colon;	!	!	!	!LO:DY:a:t=f&colon;
8GG/L	f	4.ryy	4B/	f	8g/L	.	.	.	8B/L	f	8g\L	f	4b\	.	4g/	f
8GG/	.	.	.	.	8g/J	.	.	.	8G/	.	8g\	.	.	.	.	.
!	!	!	!	!	!	!LO:DY:a:t=f&colon;	!	!	!	!	!	!	!	!LO:DY:a	!	!
8GG/J	.	.	16d/LL	.	16b/LL	f	.	.	8G/J	.	8g\J	.	(16dd\LL	f	(16bb\LL	.
.	.	.	16A/JJ	.	16f#/JJ	.	.	.	.	.	.	.	16a\JJ)	.	16ff#\JJ)	.
=166	=166	=166	=166	=166	=166	=166	=166	=166	=166	=166	=166	=166	=166	=166	=166	=166
8GG/L	.	4.ryy	4B/	.	4g/	.	.	.	8G/L	.	8g\L	.	4b\	.	4gg\	.
8GG/	.	.	.	.	.	.	.	.	8G/	.	8g\	.	.	.	.	.
8GG/J	.	.	(16g/LL	.	(16b/LL	.	.	.	8G/J	.	8g\J	.	16gg\LL	.	16bb\LL	.
.	.	.	16b/JJ)	.	16dd/JJ)	.	.	.	.	.	.	.	16bb\JJ	.	16ddd\JJ	.
=167	=167	=167	=167	=167	=167	=167	=167	=167	=167	=167	=167	=167	=167	=167	=167	=167
.	.	.	8qqb/	.	8qqdd/	.	.	.	.	.	.	.	8qqbb/	.	8qqddd/	.
!	!	!	!	!	!	!	!LO:N:vis=0	!	!	!	!	!	!	!	!	!
8D\L	.	4.ryy	4a/	.	4cc\	.	2.r	.	8e/L	.	8a\L	.	4aa\	.	4ccc\	.
8D\	.	.	.	.	.	.	.	.	8e/	.	8a\	.	.	.	.	.
8D\J	.	.	16c/LL	.	16a/LL	.	.	.	8e/J	.	8a\J	.	(16cc\LL	.	(16aa\LL	.
.	.	.	16A/JJ	.	16f#/JJ	.	.	.	.	.	.	.	16a\JJ)	.	16ff#\JJ)	.
=168	=168	=168	=168	=168	=168	=168	=168	=168	=168	=168	=168	=168	=168	=168	=168	=168
.	.	.	.	.	8qqdd/	.	.	.	.	.	.	.	.	.	.	.
!	!	!	!	!	!	!	!	!	!LO:TX:a:t=P:problem=mixed beam	!	!	!	!	!	!	!
8G\L	.	4.ryy	8B/L	.	8g/L	.	.	.	8G/L	.	8b\L	.	8b\L	.	8gg\L	.
16F#\L	.	.	16d/L	.	16d/L	.	.	.	8g\	.	8b\	.	16dd\L	.	16dd\L	.
16E\	.	.	16c/	.	16c/	.	.	.	.	.	.	.	16cc\	.	16cc\	.
16BB\	.	.	16B/	.	16B/	.	.	.	8g\J	.	8b\J	.	16b\	.	16b\	.
16AA\JJ	.	.	16A/JJ	.	16A/JJ	.	.	.	.	.	.	.	16a\JJ	.	16a\JJ	.
=169	=169	=169	=169	=169	=169	=169	=169	=169	=169	=169	=169	=169	=169	=169	=169	=169
4GG/	.	4.ryy	4G;/	.	4G/	.	4.r	.	4g\	.	4b\	.	4g/	.	4g/	.
!LO:TX:a:t=P:problem=fermaty bez kropek	!	!	!LO:TX:a:t=P:problem=pojedyncza kreska taktowa	!	!	!	!	!	!LO:TX:a:t=P:problem=fermaty bez kropek	!	!	!	!	!	!LO:TX:a:t=P:problem=pojedyncza kreska taktowa	!
8r	.	.	8r	.	8r;;	.	.	.	8r	.	8r	.	8r;;	.	8r	.
!	!	!	!	!	!	!	!	!	!LO:LB:g=original	!	!	!	!LO:LB:g=original	!	!	!
=170||;;	=170||	=170||	=170||	=170||	=170||	=170||	=170||	=170||	=170||;;	=170||	=170||;;	=170||	=170||	=170||	=170||	=170||
!LO:TX:a:t=P:problem=mixed beam	!	!	!	!LO:DY:a:t=Pia	!	!LO:DY:a:t=p	!	!	!	!	!	!	!	!	!	!
!	!	!	!	!	!	!	!	!	!LO:N:vis=00	!	!LO:N:vis=00	!	!LO:N:vis=0	!	!LO:N:vis=0	!
8EE/L	.	4.ryy	4.g/	p	4.e/	p	4.e/	Vos	1.r	.	1.r	.	2.r	.	2.r	.
8E\	.	.	.	.	.	.	.	.	.	.	.	.	.	.	.	.
8E\J	.	.	.	.	.	.	.	.	.	.	.	.	.	.	.	.
=171	=171	=171	=171	=171	=171	=171	=171	=171	=171	=171	=171	=171	=171	=171	=171	=171
!LO:TX:a:t=P:problem=mixed beam	!	!	!	!	!	!	!	!	!	!	!	!	!	!	!	!
8EE/L	.	4.ryy	4.e/	.	4.g/	.	4g/	an-	.	.	.	.	.	.	.	.
8E\	.	.	.	.	.	.	.	.	.	.	.	.	.	.	.	.
8E\J	.	.	.	.	.	.	16g/LL	-ge-	.	.	.	.	.	.	.	.
.	.	.	.	.	.	.	16a/JJ	.	.	.	.	.	.	.	.	.
!	!	!	!	!	!LO:LB:g=original	!	!LO:LB:g=original	!	!	!	!	!	!	!	!	!
=172	=172	=172	=172	=172	=172	=172	=172	=172	=172	=172	=172	=172	=172	=172	=172	=172
!LO:TX:a:t=P:problem=mixed beam	!	!	!	!	!	!	!	!	!	!	!	!	!	!LO:DY:a	!	!
8EE/L	.	4.ryy	8g/L	.	8b\L	.	8b\	li-	.	.	.	.	8gg\L	p	8bb\L	.
8E\	.	.	16g/L	.	(16b\L	.	16b\LL	-de	.	.	.	.	16gg 16ee\L	.	(16bb\L	.
.	.	.	16e/	.	16g\)	.	16g\JJ	.	.	.	.	.	16ee\	.	16gg\)	.
8E\J	.	.	16a/	.	(16cc\	.	16cc\LL	.	.	.	.	.	16aa\	.	(16ccc\	.
.	.	.	16f#/JJ	.	16a\JJ)	.	16a\JJ	.	.	.	.	.	16ff#\JJ	.	16aa\JJ)	.
=173	=173	=173	=173	=173	=173	=173	=173	=173	=173	=173	=173	=173	=173	=173	=173	=173
!LO:TX:a:t=P:problem=mixed beam	!	!	!	!	!	!	!	!	!	!	!	!	!	!	!	!
.	.	.	8qqf#/	.	8qqa/	.	.	.	.	.	.	.	8qqff#/	.	8qqaa/	.
!	!	!	!	!	!	!	!LO:SIC:v:l:s=cae-	!	!	!	!	!	!	!	!	!
8EE/L	.	4.ryy	4.g/	.	4.b\	.	8b\	ce-	.	.	.	.	4gg\	.	4.bb\	.
8E\	.	.	.	.	.	.	8g\	-lo	.	.	.	.	.	.	.	.
8E\J	.	.	.	.	.	.	8r	.	.	.	.	.	8r	.	.	.
!	!	!	!	!	!	!	!	!	!	!	!	!	!	!	!LO:LB:g=original	!
=174	=174	=174	=174	=174	=174	=174	=174	=174	=174	=174	=174	=174	=174	=174	=174	=174
!LO:TX:a:t=P:problem=mixed beam	!	!	!	!	!	!	!	!	!	!	!	!	!	!	!	!
!	!	!	!	!	!	!	!	!	!LO:N:vis=00	!	!LO:N:vis=00	!	!LO:N:vis=0	!	!LO:N:vis=0	!
8EE/L	.	4.ryy	4.g/	.	4.e/	.	4.e/	Som-	1.r	.	1.r	.	2.r	.	2.r	.
8E\	.	.	.	.	.	.	.	.	.	.	.	.	.	.	.	.
8E\J	.	.	.	.	.	.	.	.	.	.	.	.	.	.	.	.
=175	=175	=175	=175	=175	=175	=175	=175	=175	=175	=175	=175	=175	=175	=175	=175	=175
!LO:TX:a:t=P:problem=mixed beam	!	!	!	!	!	!	!	!	!	!	!	!	!	!	!	!
8EE/L	.	4.ryy	4.e/	.	4.g/	.	4g\	-num	.	.	.	.	.	.	.	.
8E\	.	.	.	.	.	.	.	.	.	.	.	.	.	.	.	.
8E\J	.	.	.	.	.	.	8a\	vo-	.	.	.	.	.	.	.	.
=176	=176	=176	=176	=176	=176	=176	=176	=176	=176	=176	=176	=176	=176	=176	=176	=176
!LO:TX:a:t=P:problem=mixed beam	!	!	!	!	!	!	!	!	!	!	!	!	!	!	!	!
8EE/L	.	4.ryy	8g/L	.	8b\L	.	8b\	-ca-	.	.	.	.	8gg\L	.	8bb\L	.
8E\	.	.	16g/L	.	(16b\L	.	16b\LL	-te	.	.	.	.	(16gg\L	.	(16bb\L	.
.	.	.	16e/	.	16g\)	.	16g\JJ	.	.	.	.	.	16ee\)	.	16gg\)	.
8E\J	.	.	16a/	.	(16cc\	.	16cc\LL	Pu-	.	.	.	.	(16aa\	.	(16ccc\	.
.	.	.	16f#/JJ	.	16a\JJ)	.	16a\JJ	.	.	.	.	.	16ff#\JJ)	.	16aa\JJ)	.
=177	=177	=177	=177	=177	=177	=177	=177	=177	=177	=177	=177	=177	=177	=177	=177	=177
!LO:TX:a:t=P:problem=mixed beam	!	!	!	!	!	!	!	!	!	!	!	!	!	!	!	!
.	.	.	8qqf#/	.	8qqa/	.	.	.	.	.	.	.	8qqff#/	.	.	.
8EE/L	.	4.ryy	4.g/	.	4.b\	.	8b\	-ello	.	.	.	.	4.gg\	.	4.bb\	.
8E\	.	.	.	.	.	.	8g\	.	.	.	.	.	.	.	.	.
8E\J	.	.	.	.	.	.	8r	.	.	.	.	.	.	.	.	.
=178	=178	=178	=178	=178	=178	=178	=178	=178	=178	=178	=178	=178	=178	=178	=178	=178
!	!	!	!	!	!	!	!	!	!	!	!	!LO:DY:t=p.	!	!	!	!
4E\	.	4.ryy	4b\	.	(16ee\LL	.	4.ee\	Pu-	4B/	.	4B/	p	8gg\L	.	16eee\LL	.
.	.	.	.	.	16b\)	.	.	.	.	.	.	.	.	.	16bb\JJ	.
.	.	.	.	.	(16gg\	.	.	.	.	.	.	.	8gg\	.	4bb\	.
.	.	.	.	.	16b\)	.	.	.	.	.	.	.	.	.	.	.
8B\	.	.	8dd#X\	.	(16ff#\	.	.	.	8r	.	8r	.	8ff#\J	.	.	.
.	.	.	.	.	16b\JJ)	.	.	.	.	.	.	.	.	.	.	.
=179	=179	=179	=179	=179	=179	=179	=179	=179	=179	=179	=179	=179	=179	=179	=179	=179
!	!	!	!LO:TX:a:t=P:problem=takt zapisany repetycją	!	!	!	!	!	!	!	!	!	!	!	!	!
4e\	.	4.ryy	4b\yy	.	(16ee\LL	.	4.ee\	.	4B/	.	4B/	.	8gg\L	.	16eee\LL	.
.	.	.	.	.	16b\)	.	.	.	.	.	.	.	.	.	16bb\JJ	.
.	.	.	.	.	(16gg\	.	.	.	.	.	.	.	8gg\	.	4bb\	.
.	.	.	.	.	16b\)	.	.	.	.	.	.	.	.	.	.	.
8B\	.	.	8dd#X\yy	.	(16ff#\	.	.	.	8r	.	8r	.	8ff#\J	.	.	.
.	.	.	.	.	16b\JJ)	.	.	.	.	.	.	.	.	.	.	.
!LO:LB:g=original	!	!	!	!	!	!	!	!	!	!	!	!	!	!	!	!
=180	=180	=180	=180	=180	=180	=180	=180	=180	=180	=180	=180	=180	=180	=180	=180	=180
8e\L	.	4.ryy	8ee\L	.	8ee\L	.	8ee\	.	8r	.	8r	.	8gg\L	.	8eee\L	.
16B\L	.	.	16b\L	.	16b\L	.	8b\L	.	8r	.	8r	.	16bb\L	.	16bb\L	.
16A\	.	.	16a\	.	16a\	.	.	.	.	.	.	.	16aa\	.	16aa\	.
16G\	.	.	16g\	.	16g\	.	8g\J	-el-	16B/LL	.	16B/LL	.	16gg\	.	16gg\	.
16F#\JJ	.	.	16f#\JJ	.	16f#\JJ	.	.	.	16B/JJ	.	16B/JJ	.	16ff#\JJ	.	16ff#\JJ	.
=181	=181	=181	=181	=181	=181	=181	=181	=181	=181	=181	=181	=181	=181	=181	=181	=181
4E\	.	4.ryy	4e/	.	4e/	.	4e/	-lo	4B/	.	4B/	.	4ee\	.	4ee\	.
8r	.	.	8r	.	8r	.	8r	.	8r	.	8r	.	8r	.	8r	.
!	!	!	!	!	!	!	!	!	!	!	!LO:LB:g=original	!	!	!	!	!
=182	=182	=182	=182	=182	=182	=182	=182	=182	=182	=182	=182	=182	=182	=182	=182	=182
!	!	!	!	!	!	!	!	!	!LO:N:vis=00	!	!LO:N:vis=00	!	!LO:N:vis=00	!	!LO:N:vis=00	!
8E\L	.	4.ryy	8g#X/L	.	4b\	.	8b\	Vos	1.r	.	1.r	.	1.r	.	1.r	.
8E\	.	.	8g#/	.	.	.	8b\	o	.	.	.	.	.	.	.	.
8E\J	.	.	8g#/J	.	24b\LL	.	8dd\	An-	.	.	.	.	.	.	.	.
.	.	.	.	.	24cc\	.	.	.	.	.	.	.	.	.	.	.
.	.	.	.	.	24ddn\JJ	.	.	.	.	.	.	.	.	.	.	.
!	!	!	!	!	!	!	!LO:LB:g=original	!	!	!	!	!	!	!	!	!
=183	=183	=183	=183	=183	=183	=183	=183	=183	=183	=183	=183	=183	=183	=183	=183	=183
4AA/	.	4.ryy	4e/	.	8cc\L	.	8cc\	-ge-	.	.	.	.	.	.	.	.
.	.	.	.	.	8a\	.	8a\	-li	.	.	.	.	.	.	.	.
8r	.	.	8r	.	8ee\J	.	8r	.	.	.	.	.	.	.	.	.
=184	=184	=184	=184	=184	=184	=184	=184	=184	=184	=184	=184	=184	=184	=184	=184	=184
8E\L	.	4.ryy	8g#X/L	.	4b\	.	8dd\	de	.	.	.	.	.	.	.	.
8E\	.	.	8g#/	.	.	.	16ffn\LL	.	.	.	.	.	.	.	.	.
.	.	.	.	.	.	.	16dd\	.	.	.	.	.	.	.	.	.
8E\J	.	.	8g#/J	.	(24b\LL	.	16cc\	.	.	.	.	.	.	.	.	.
.	.	.	.	.	24cc\	.	.	.	.	.	.	.	.	.	.	.
.	.	.	.	.	.	.	16b\JJ	.	.	.	.	.	.	.	.	.
.	.	.	.	.	24dd\JJ)	.	.	.	.	.	.	.	.	.	.	.
=185	=185	=185	=185	=185	=185	=185	=185	=185	=185	=185	=185	=185	=185	=185	=185	=185
*	*	*	*Xtuplet	*	*	*	*	*	*	*	*	*	*	*	*	*
!LO:TX:a:t=P:problem=mixed beam	!	!	!	!	!	!	!	!	!	!	!	!	!	!	!	!
8AA/L	.	4.ryy	24e/LL	.	24cc\LL	.	8cc\	cel-	.	.	.	.	.	.	.	.
.	.	.	24d/	.	24b\	.	.	.	.	.	.	.	.	.	.	.
.	.	.	24c/JJ	.	24a\JJ	.	.	.	.	.	.	.	.	.	.	.
16A\L	.	.	8c/	.	8a/	.	8a\	-lo	.	.	.	.	.	.	.	.
16Gn\	.	.	.	.	.	.	.	.	.	.	.	.	.	.	.	.
16F#\	.	.	8r	.	8r	.	8r	.	.	.	.	.	.	.	.	.
16E\JJ	.	.	.	.	.	.	.	.	.	.	.	.	.	.	.	.
!	!	!	!LO:LB:g=original	!	!	!	!	!	!	!	!	!	!	!	!	!
=186	=186	=186	=186	=186	=186	=186	=186	=186	=186	=186	=186	=186	=186	=186	=186	=186
!	!	!	!	!	!	!	!	!	!LO:N:vis=00	!	!LO:N:vis=00	!	!LO:N:vis=00	!	!LO:N:vis=00	!
8D\L	.	4.ryy	8f#/L	.	4a/	.	8a\	Som-	1.r	.	1.r	.	1.r	.	1.r	.
!	!LO:DY:t=f	!	!	!	!	!	!	!	!	!	!	!	!	!	!	!
8D\	f	.	8f#/	.	.	.	8a\	-num	.	.	.	.	.	.	.	.
8D\J	.	.	8f#/J	.	(24a/LL	.	16b\LL	Vo-	.	.	.	.	.	.	.	.
.	.	.	.	.	24b/	.	.	.	.	.	.	.	.	.	.	.
.	.	.	.	.	.	.	16cc\JJ	.	.	.	.	.	.	.	.	.
.	.	.	.	.	24cc/JJ)	.	.	.	.	.	.	.	.	.	.	.
=187	=187	=187	=187	=187	=187	=187	=187	=187	=187	=187	=187	=187	=187	=187	=187	=187
4GG/	.	4.ryy	4d/	.	8b\L	.	8b\	-ca-	.	.	.	.	.	.	.	.
.	.	.	.	.	8g\	.	8g\	-te	.	.	.	.	.	.	.	.
8r	.	.	8r	.	8dd\J	.	8r	.	.	.	.	.	.	.	.	.
=188	=188	=188	=188	=188	=188	=188	=188	=188	=188	=188	=188	=188	=188	=188	=188	=188
8D\L	.	4.ryy	8f#/L	.	4a/	.	8cc\	Pu-	.	.	.	.	.	.	.	.
8D\	.	.	8f#/	.	.	.	16ee\LL	.	.	.	.	.	.	.	.	.
.	.	.	.	.	.	.	16cc\	.	.	.	.	.	.	.	.	.
8D\J	.	.	8f#/J	.	24a/LL	.	16b\	.	.	.	.	.	.	.	.	.
.	.	.	.	.	24b/	.	.	.	.	.	.	.	.	.	.	.
.	.	.	.	.	.	.	16a\JJ	.	.	.	.	.	.	.	.	.
.	.	.	.	.	24cc/JJ	.	.	.	.	.	.	.	.	.	.	.
!	!	!	!	!	!LO:LB:g=original	!	!	!	!	!	!	!	!	!	!	!
=189	=189	=189	=189	=189	=189	=189	=189	=189	=189	=189	=189	=189	=189	=189	=189	=189
!LO:TX:a:t=P:problem=mixed beam	!	!	!	!	!	!	!	!	!	!	!	!	!	!	!	!
8GG/L	.	4.ryy	24d/LL	.	24b\LL	.	8b\	-el-	.	.	.	.	.	.	.	.
.	.	.	24c/	.	24a\	.	.	.	.	.	.	.	.	.	.	.
.	.	.	24B/JJ	.	24g\JJ	.	.	.	.	.	.	.	.	.	.	.
16B\L	.	.	8B/	.	8g/	.	8g\	-lo	.	.	.	.	.	.	.	.
16A\	.	.	.	.	.	.	.	.	.	.	.	.	.	.	.	.
16G\	.	.	8r	.	8r	.	8r	.	.	.	.	.	.	.	.	.
16F#\JJ	.	.	.	.	.	.	.	.	.	.	.	.	.	.	.	.
=190	=190	=190	=190	=190	=190	=190	=190	=190	=190	=190	=190	=190	=190	=190	=190	=190
!	!LO:DY:t=p&colon;	!	!	!	!	!	!	!	!LO:N:vis=00	!	!LO:N:vis=00	!	!	!	!	!
8E\L	p	4.ryy	8gg\L	.	8bb\L	.	8gg\	Di-	1.r	.	1.r	.	8gg\L	.	8bb\L	.
8A\	.	.	8ff#\	.	8aa\	.	8ff#\	-lec-	.	.	.	.	8ff#\	.	8aa\	.
8A#X\J	.	.	8ee\J	.	8gg\J	.	8ee\	-te	.	.	.	.	8ee\J	.	8gg\J	.
=191	=191	=191	=191	=191	=191	=191	=191	=191	=191	=191	=191	=191	=191	=191	=191	=191
8B\L	.	4.ryy	8ee\L	.	8gg\L	.	8ee\	Fi-	.	.	.	.	8eeT\L	.	8ggT\L	.
16B\L	.	.	8dd#X\J	.	8ff#\J	.	8dd#X\	-li	.	.	.	.	8dd#X\J	.	8ff#\J	.
16An\	.	.	.	.	.	.	.	.	.	.	.	.	.	.	.	.
16G\	.	.	8r	.	8r	.	8r	.	.	.	.	.	8r	.	8r	.
16F#\JJ	.	.	.	.	.	.	.	.	.	.	.	.	.	.	.	.
!	!	!	!	!	!	!	!LO:LB:g=original	!	!	!	!	!	!	!	!	!
=192	=192	=192	=192	=192	=192	=192	=192	=192	=192	=192	=192	=192	=192	=192	=192	=192
!	!	!	!	!	!	!	!	!	!	!	!	!	!LO:N:vis=00	!	!LO:N:vis=00	!
4E\	.	4.ryy	4.r	.	8b\L	.	8b\	Di-	.	.	.	.	1.r	.	1.r	.
.	.	.	.	.	8b\	.	16a\LL	-lec-	.	.	.	.	.	.	.	.
.	.	.	.	.	.	.	16g\JJ	.	.	.	.	.	.	.	.	.
8r	.	.	.	.	8b\J	.	16f#/LL	-te	.	.	.	.	.	.	.	.
.	.	.	.	.	.	.	16e/JJ	.	.	.	.	.	.	.	.	.
=193	=193	=193	=193	=193	=193	=193	=193	=193	=193	=193	=193	=193	=193	=193	=193	=193
4.r	.	4.ryy	8a/L	.	8ccn\L	.	8cc\	.	.	.	.	.	.	.	.	.
.	.	.	8a/	.	8cc\	.	16b\LL	.	.	.	.	.	.	.	.	.
.	.	.	.	.	.	.	16a\JJ	.	.	.	.	.	.	.	.	.
.	.	.	8a/J	.	8cc\J	.	16g/LL	.	.	.	.	.	.	.	.	.
.	.	.	.	.	.	.	16f#/JJ	.	.	.	.	.	.	.	.	.
!LO:LB:g=original	!	!	!	!	!	!	!	!	!	!	!	!	!	!	!	!
=194	=194	=194	=194	=194	=194	=194	=194	=194	=194	=194	=194	=194	=194	=194	=194	=194
*	*	*	*^	*	*	*	*	*	*	*	*	*	*	*	*	*
!	!LO:DY:t=f&colon;	!	!	!	!	!	!	!	!	!LO:N:vis=00	!	!LO:N:vis=00	!	!	!	!	!
8B\L	f	4.ryy	8a/L	8f#\L	.	8dd#X\L	.	16ff#\LL	Di-	1.r	.	1.r	.	.	.	.	.
.	.	.	.	.	.	.	.	16ee\JJ	.	.	.	.	.	.	.	.	.
8B\	.	.	8a/	8f#\	.	8dd#\	.	16dd#X\LL	-lec-	.	.	.	.	.	.	.	.
.	.	.	.	.	.	.	.	16cc\JJ	.	.	.	.	.	.	.	.	.
8B\J	.	.	8a/J	8f#\J	.	8dd#\J	.	16b\LL	-te	.	.	.	.	.	.	.	.
.	.	.	.	.	.	.	.	16a\JJ	.	.	.	.	.	.	.	.	.
*	*	*	*v	*v	*	*	*	*	*	*	*	*	*	*	*	*	*
=195	=195	=195	=195	=195	=195	=195	=195	=195	=195	=195	=195	=195	=195	=195	=195	=195
!	!	!	!	!	!LO:SIC:v:s=8qqdd#	!	!	!	!	!	!	!	!	!	!	!
.	.	.	8qqa/	.	8qqdd/	.	.	.	.	.	.	.	.	.	.	.
8G\L	.	4.ryy	4.g/	.	4.ee\	.	16g\LL	fi-	.	.	.	.	.	.	.	.
.	.	.	.	.	.	.	16a\JJ	.	.	.	.	.	.	.	.	.
16E\L	.	.	.	.	.	.	4b\	-li	.	.	.	.	.	.	.	.
16F#\	.	.	.	.	.	.	.	.	.	.	.	.	.	.	.	.
16G\	.	.	.	.	.	.	.	.	.	.	.	.	.	.	.	.
!LO:TX:a:t=e	!	!	!	!	!	!	!	!	!	!	!	!	!	!	!	!
16E\JJ	.	.	.	.	.	.	.	.	.	.	.	.	.	.	.	.
=196	=196	=196	=196	=196	=196	=196	=196	=196	=196	=196	=196	=196	=196	=196	=196	=196
!LO:TX:a:t=2	!	!	!	!	!	!	!	!	!	!	!	!	!	!	!	!
!LO:N:vis=0	!	!	!	!	!	!	!	!	!	!	!	!	!LO:N:vis=00	!	!LO:N:vis=00	!
2.r	.	4.ryy	4.r	.	8b\L	.	16ee\LL	Di-	.	.	.	.	1.r	.	1.r	.
.	.	.	.	.	.	.	16b\JJ	.	.	.	.	.	.	.	.	.
.	.	.	.	.	8b\	.	16a/LL	-lec-	.	.	.	.	.	.	.	.
.	.	.	.	.	.	.	16g/JJ	.	.	.	.	.	.	.	.	.
.	.	.	.	.	8b\J	.	16f#/LL	-te	.	.	.	.	.	.	.	.
.	.	.	.	.	.	.	16e/JJ	.	.	.	.	.	.	.	.	.
=197	=197	=197	=197	=197	=197	=197	=197	=197	=197	=197	=197	=197	=197	=197	=197	=197
.	.	4.ryy	8a/L	.	8ccn\L	.	8cc\	.	.	.	.	.	.	.	.	.
.	.	.	8a/	.	8cc\	.	16b\LL	.	.	.	.	.	.	.	.	.
.	.	.	.	.	.	.	16a\JJ	.	.	.	.	.	.	.	.	.
.	.	.	8a/J	.	8cc\J	.	16g/LL	.	.	.	.	.	.	.	.	.
.	.	.	.	.	.	.	16f#/JJ	.	.	.	.	.	.	.	.	.
=198	=198	=198	=198	=198	=198	=198	=198	=198	=198	=198	=198	=198	=198	=198	=198	=198
*	*	*	*^	*	*	*	*	*	*	*	*	*	*	*	*	*
!	!	!	!	!	!	!	!	!	!	!LO:N:vis=00	!	!LO:N:vis=00	!	!	!	!	!
8B\L	.	4.ryy	8a/L	8f#\L	.	8dd#X\L	.	16b\LL	.	1.r	.	1.r	.	.	.	.	.
.	.	.	.	.	.	.	.	16dd#X\JJ	.	.	.	.	.	.	.	.	.
8B\	.	.	8a/	8f#\	.	8dd#\	.	16ff#\LL	.	.	.	.	.	.	.	.	.
.	.	.	.	.	.	.	.	16aa\JJ	.	.	.	.	.	.	.	.	.
8B\J	.	.	8a/J	8f#\J	.	8dd#\J	.	16gg\LL	.	.	.	.	.	.	.	.	.
.	.	.	.	.	.	.	.	16ff#\JJ	.	.	.	.	.	.	.	.	.
*	*	*	*v	*v	*	*	*	*	*	*	*	*	*	*	*	*	*
!	!	!	!	!	!	!	!LO:LB:g=original	!	!	!	!	!	!	!	!	!
=199	=199	=199	=199	=199	=199	=199	=199	=199	=199	=199	=199	=199	=199	=199	=199	=199
4E\	.	4.ryy	4g/	.	4ee\	.	16gg\LL	Fi-	.	.	.	.	.	.	.	.
.	.	.	.	.	.	.	16ee\JJ	.	.	.	.	.	.	.	.	.
.	.	.	.	.	.	.	16dd#X\LL	.	.	.	.	.	.	.	.	.
.	.	.	.	.	.	.	16ee\JJ	.	.	.	.	.	.	.	.	.
8A\	.	.	8a/	.	8a/	.	16dd#\LL	-li	.	.	.	.	.	.	.	.
.	.	.	.	.	.	.	16ee\JJ	.	.	.	.	.	.	.	.	.
=200	=200	=200	=200	=200	=200	=200	=200	=200	=200	=200	=200	=200	=200	=200	=200	=200
!	!	!	!	!	!	!	!	!	!	!	!	!	!LO:N:vis=0	!	!LO:N:vis=0	!
4.B;\	.	4.ryy	4.b;\	.	4.b;\	.	8b\	fi-	.	.	.	.	2.r	.	2.r	.
.	.	.	.	.	.	.	4ff#;\	.	.	.	.	.	.	.	.	.
=201	=201	=201	=201	=201	=201	=201	=201	=201	=201	=201	=201	=201	=201	=201	=201	=201
4.BB;/	.	4.ryy	4.B;/	.	4.B/	.	4ee\	-li	.	.	.	.	.	.	.	.
.	.	.	.	.	.	.	8r	.	.	.	.	.	.	.	.	.
=202	=202	=202	=202	=202	=202	=202	=202	=202	=202	=202	=202	=202	=202	=202	=202	=202
!	!	!	!	!	!	!	!LO:TX:a:t=24	!	!LO:TX:a:t=P:problem=fermata bez kropki	!	!	!	!	!	!	!
!	!	!	!	!	!	!	!LO:N:vis=00	!	!	!	!	!	!	!	!	!
4E\	.	4.ryy	4e/	.	4e/	.	1.r	.	4.r;	.	4.r;	.	4.r	.	4.r;	.
8r	.	.	8r	.	8r	.	.	.	.	.	.	.	.	.	.	.
=203	=203	=203	=203	=203	=203	=203	=203	=203	=203	=203	=203	=203	=203	=203	=203	=203
!LO:TX:a:t=P:problem=mixed beam	!	!	!	!LO:DY:a	!	!LO:DY:a:t=f	!	!	!	!LO:DY:t=f.	!	!	!	!LO:DY:a:t=f	!	!LO:DY:a:t=f
8GG/L	.	4.ryy	4.B/	f	4.g/	f	.	.	8r	f	8r	.	4.b\	f	4.gg\	f
8G\	.	.	.	.	.	.	.	.	8B/L	.	8g\L	f	.	.	.	.
8G\J	.	.	.	.	.	.	.	.	8B/J	.	8g\J	.	.	.	.	.
=204	=204	=204	=204	=204	=204	=204	=204	=204	=204	=204	=204	=204	=204	=204	=204	=204
!LO:TX:a:t=P:problem=mixed beam	!	!	!	!	!	!	!	!	!	!	!	!	!	!	!	!
8GG/L	.	4.ryy	4.g/	.	4.b\	.	.	.	8r	.	8r	.	4.gg\	.	4.bb\	.
8G\	.	.	.	.	.	.	.	.	8g\L	.	8b\L	.	.	.	.	.
8G\J	.	.	.	.	.	.	.	.	8g\J	.	8b\J	.	.	.	.	.
=205	=205	=205	=205	=205	=205	=205	=205	=205	=205	=205	=205	=205	=205	=205	=205	=205
!LO:TX:a:t=P:problem=mixed beam	!	!	!	!	!	!	!	!	!	!	!	!	!	!	!	!
8GG/L	.	4.ryy	8b/L	.	8dd\L	.	.	.	8b\L	.	8dd\L	.	8bb\L	.	8ddd\L	.
8G\	.	.	(16b/L	.	16dd\L	.	.	.	8b\	.	8dd\	.	16bb\L	.	16ddd\L	.
.	.	.	16g/)	.	16b\	.	.	.	.	.	.	.	16gg\	.	16bb\	.
8G\J	.	.	(16a/	.	16cc\	.	.	.	8cc\J	.	8ee\J	.	16aa\	.	16ccc\	.
.	.	.	16cc/JJ)	.	16ee\JJ	.	.	.	.	.	.	.	16ccc\JJ	.	16eee\JJ	.
!	!	!	!	!	!	!	!	!	!	!	!	!	!LO:LB:g=original	!	!LO:LB:g=original	!
=206	=206	=206	=206	=206	=206	=206	=206	=206	=206	=206	=206	=206	=206	=206	=206	=206
!LO:TX:a:t=P:problem=mixed beam	!	!	!	!	!	!	!	!	!	!	!	!	!	!	!	!
.	.	.	8qqcc/	.	8qqee/	.	.	.	8qqcc/	.	8qqee/	.	8qqccc/	.	8qqeee/	.
!	!	!	!	!	!	!	!LO:N:vis=00	!	!	!	!	!	!	!	!	!
8GG/L	.	4.ryy	4.b\	.	4.dd\	.	1.r	.	4.b\	.	4.dd\	.	4.bb\	.	4.ddd\	.
8G\	.	.	.	.	.	.	.	.	.	.	.	.	.	.	.	.
8G\J	.	.	.	.	.	.	.	.	.	.	.	.	.	.	.	.
=207	=207	=207	=207	=207	=207	=207	=207	=207	=207	=207	=207	=207	=207	=207	=207	=207
!LO:TX:a:t=P:problem=mixed beam	!	!	!	!LO:DY:a:t=p	!	!LO:DY:a	!	!	!	!LO:DY:t=p&colon;	!LO:TX:a:t=P:problem=takty 207-210 zapisane repetycją	!	!	!LO:DY:a:t=p	!	!LO:DY:a:t=p
8GG/L	.	4.ryy	4.B/	p	4.g/	p	.	.	8r	p	8ryy	.	4.b\	p	4.gg\	p
8G\	.	.	.	.	.	.	.	.	8B/L	.	8g\Lyy	f	.	.	.	.
8G\J	.	.	.	.	.	.	.	.	8B/J	.	8g\Jyy	.	.	.	.	.
=208	=208	=208	=208	=208	=208	=208	=208	=208	=208	=208	=208	=208	=208	=208	=208	=208
!LO:TX:a:t=P:problem=mixed beam	!	!	!	!	!	!	!	!	!	!	!	!	!	!	!	!
8GG/L	.	4.ryy	4.g/	.	4.b\	.	.	.	8r	.	8ryy	.	4.gg\	.	4.bb\	.
8G\	.	.	.	.	.	.	.	.	8g\L	.	8b\Lyy	.	.	.	.	.
8G\J	.	.	.	.	.	.	.	.	8g\J	.	8b\Jyy	.	.	.	.	.
=209	=209	=209	=209	=209	=209	=209	=209	=209	=209	=209	=209	=209	=209	=209	=209	=209
!LO:TX:a:t=P:problem=mixed beam	!	!	!	!	!	!	!	!	!	!	!	!	!	!	!	!
8GG/L	.	4.ryy	8b/L	.	8dd\L	.	.	.	8b\L	.	8dd\Lyy	.	8bb\L	.	8ddd\L	.
8G\	.	.	16b/L	.	16dd\L	.	.	.	8b\	.	8dd\yy	.	(16bb\L	.	16ddd\L	.
.	.	.	16g/	.	16b\	.	.	.	.	.	.	.	16gg\)	.	16bb\	.
8G\J	.	.	16a/	.	16cc\	.	.	.	8cc\J	.	8ee\Jyy	.	(16aa\	.	16ccc\	.
.	.	.	16cc/JJ	.	16ee\JJ	.	.	.	.	.	.	.	16ccc\JJ)	.	16eee\JJ	.
!	!	!	!	!	!LO:LB:g=original	!	!	!	!	!	!	!	!	!	!	!
=210	=210	=210	=210	=210	=210	=210	=210	=210	=210	=210	=210	=210	=210	=210	=210	=210
!LO:TX:a:t=P:problem=mixed beam	!	!	!	!	!	!	!	!	!	!	!	!	!	!	!	!
.	.	.	8qqcc/	.	8qqee/	.	.	.	8qqcc/	.	8qqee/yy	.	8qqccc/	.	8qqeee/	.
!	!	!	!	!	!	!	!LO:N:vis=00	!	!	!	!	!	!	!	!	!
8GG/L	.	4.ryy	4.b\	.	4.dd\	.	1.r	.	4.b\	.	4.dd\yy	.	4.bb\	.	4.ddd\	.
8G\	.	.	.	.	.	.	.	.	.	.	.	.	.	.	.	.
!LO:TX:b:t=Verte	!	!	!	!	!	!	!	!	!	!	!	!	!	!	!	!
8G\J	.	.	.	.	.	.	.	.	.	.	.	.	.	.	.	.
!LO:PB:g=original	!	!	!LO:LB:g=original	!	!	!	!	!	!LO:LB:g=original	!	!	!	!	!	!	!
=211	=211	=211	=211	=211	=211	=211	=211	=211	=211	=211	=211	=211	=211	=211	=211	=211
!	!LO:DY:rj:t=f	!	!	!LO:DY:a	!	!LO:DY:a:t=f&colon;	!	!	!	!LO:DY:rj:t=f&colon;	!	!LO:DY:t=p&colon;	!	!LO:DY:a:rj:t=f	!	!LO:DY:a:rj:t=f
4GG/	f	4.ryy	4d/	f	(16g/LL	f	.	.	8g\L	f	8b\L	p	8bb\L	f	16ggg\LL	f
.	.	.	.	.	16d/JJ)	.	.	.	.	.	.	.	.	.	16ddd\JJ	.
.	.	.	.	.	(16b/LL	.	.	.	8g\	.	8b\	.	8bb\	.	4ddd\	.
.	.	.	.	.	16d/JJ)	.	.	.	.	.	.	.	.	.	.	.
8D\	.	.	8f#/	.	(16a/LL	.	.	.	8d\J	.	8a\J	.	8aa\J	.	.	.
.	.	.	.	.	16d/JJ)	.	.	.	.	.	.	.	.	.	.	.
=212	=212	=212	=212	=212	=212	=212	=212	=212	=212	=212	=212	=212	=212	=212	=212	=212
4G\	.	4.ryy	4d/	.	(16g/LL	.	.	.	8G/L	.	8b\L	.	8bb\L	.	16ggg\LL	.
.	.	.	.	.	16d/JJ)	.	.	.	.	.	.	.	.	.	16ddd\JJ	.
.	.	.	.	.	(16b/LL	.	.	.	8G/	.	8b\	.	8bb\	.	4ddd\	.
.	.	.	.	.	16d/JJ)	.	.	.	.	.	.	.	.	.	.	.
8D\	.	.	8f#/	.	(16a/LL	.	.	.	8d/J	.	8a\J	.	8aa\J	.	.	.
.	.	.	.	.	16d/JJ)	.	.	.	.	.	.	.	.	.	.	.
=213	=213	=213	=213	=213	=213	=213	=213	=213	=213	=213	=213	=213	=213	=213	=213	=213
!LO:TX:a:t=P:problem=mixed beam	!	!	!	!	!	!	!	!	!	!	!	!	!	!	!	!
8GG/L	.	4.ryy	(16g/LL	.	(16b\LL	.	.	.	8g\L	.	8b\L	.	16gg\LL	.	16bb\LL	.
.	.	.	16b/)	.	16dd\JJ)	.	.	.	.	.	.	.	16bb\	.	16ddd\	.
8G\	.	.	(16g/	.	(16b\LL	.	.	.	8g\	.	8b\J	.	16gg\	.	16bb\	.
.	.	.	16B/)	.	16g\JJ)	.	.	.	.	.	.	.	16b\	.	16gg\	.
8D\J	.	.	(16c/	.	16a\LL	.	.	.	16d\L	.	16a\LL	.	16cc\	.	16aa\	.
.	.	.	16A/JJ)	.	16f#\JJ	.	.	.	16d\JJ	.	16a\JJ	.	16a\JJ	.	16ff#\JJ	.
=214	=214	=214	=214	=214	=214	=214	=214	=214	=214	=214	=214	=214	=214	=214	=214	=214
.	.	.	.	.	8qqf#/	.	.	.	.	.	.	.	8qqa/	.	8qqff#/	.
!	!	!	!	!	!	!	!LO:N:vis=00	!	!	!	!	!	!	!	!	!
4GG/	.	4.ryy	4B/	.	4g/	.	1.r	.	4B/	.	4g\	.	4b\	.	4gg\	.
8r	.	.	(16b\LL	.	(16gg\LL	.	.	.	8cc\	.	8ee\	.	(16b\LL	.	(16gg\LL	.
.	.	.	16cc\JJ)	.	16ee\JJ)	.	.	.	.	.	.	.	16cc\JJ)	.	16ee\JJ)	.
=215	=215	=215	=215	=215	=215	=215	=215	=215	=215	=215	=215	=215	=215	=215	=215	=215
.	.	.	8qqcc/	.	8qqee/	.	.	.	.	.	.	.	8qqb/	.	8qqee/	.
8GG/L	.	4.ryy	8b\L	.	8dd\L	.	.	.	8b\L	.	8dd\L	.	8b\L	.	8dd\L	.
8GG/	.	.	8b\J	.	8dd\J	.	.	.	8b\	.	8dd\	.	8b\J	.	8dd\J	.
8GG/J	.	.	16b\LL	.	16gg\LL	.	.	.	8cc\J	.	8ee\J	.	(16b\LL	.	(16gg\LL	.
.	.	.	16cc\JJ	.	16ee\JJ	.	.	.	.	.	.	.	16cc\JJ)	.	16ee\JJ)	.
=216	=216	=216	=216	=216	=216	=216	=216	=216	=216	=216	=216	=216	=216	=216	=216	=216
8GG/L	.	4.ryy	8b\L	.	8dd\L	.	.	.	8b\L	.	8dd\L	.	8b\L	.	8dd\L	.
8GG/	.	.	8b\J	.	8dd\J	.	.	.	8b\	.	8dd\	.	8b\J	.	8dd\J	.
8GG/J	.	.	16cc\LL	.	16ee\LL	.	.	.	8a\J	.	8cc\J	.	(16cc\LL	.	(16ee\LL	.
.	.	.	16a\JJ	.	16cc\JJ	.	.	.	.	.	.	.	16a\JJ)	.	16cc\JJ)	.
=217	=217	=217	=217	=217	=217	=217	=217	=217	=217	=217	=217	=217	=217	=217	=217	=217
8D/L	.	4.ryy	8d/L	.	8b\L	.	.	.	8g\L	.	8b\L	.	8dd\L	.	8b\L	.
8D/	.	.	8d/J	.	8b\J	.	.	.	8g\J	.	8b\J	.	8dd\J	.	8b\J	.
8D/J	.	.	16e/LL	.	(16cc\LL	.	.	.	16d/LL	.	16a\LL	.	(16ee\LL	.	16cc\LL	.
.	.	.	16c/JJ	.	16a\JJ)	.	.	.	16d/JJ	.	16a\JJ	.	16cc\JJ)	.	16a\JJ	.
=218	=218	=218	=218	=218	=218	=218	=218	=218	=218	=218	=218	=218	=218	=218	=218	=218
!	!	!	!	!LO:DY:a:t=p	!	!	!	!	!	!	!	!	!	!	!	!
.	.	.	8qqc/	p	8qqa/	.	.	.	.	.	.	.	8qqcc/	.	8qqa/	.
!	!LO:DY:t=p&colon;	!	!	!	!	!	!LO:N:vis=00	!	!	!	!	!	!	!LO:DY:a:t=p	!	!LO:DY:a:t=p
8GG/L	p	4.ryy	4B/	.	4g/	.	1.r	.	4B/	.	4g\	.	4b\	p	4g/	p
!	!	!	!	!	!	!LO:DY:t=p&colon;	!	!	!	!	!	!	!	!	!	!
8GG/	.	.	.	.	.	p	.	.	.	.	.	.	.	.	.	.
8GG/J	.	.	(16b\LL	.	(16gg\LL	.	.	.	8cc\	.	8ee\	.	(16b\LL	.	(16gg\LL	.
.	.	.	16cc\JJ)	.	16ee\JJ)	.	.	.	.	.	.	.	16cc\JJ)	.	16ee\JJ)	.
=219	=219	=219	=219	=219	=219	=219	=219	=219	=219	=219	=219	=219	=219	=219	=219	=219
.	.	.	8qqcc/	.	8qqee/	.	.	.	.	.	.	.	.	.	8qqee/	.
8GG/L	.	4.ryy	8b\L	.	8dd\L	.	.	.	8b\L	.	8dd\L	.	8b\L	.	8dd\L	.
8GG/	.	.	8b\J	.	8dd\J	.	.	.	8b\	.	8dd\	.	8b\J	.	8dd\J	.
!	!	!	!	!	!	!	!	!	!	!	!	!	!	!	!LO:LB:g=original	!
8GG/J	.	.	(16b\LL	.	(16gg\LL	.	.	.	8cc\J	.	8ee\J	.	(16b\LL	.	16gg\LL	.
.	.	.	16cc\JJ)	.	16ee\JJ)	.	.	.	.	.	.	.	16cc\JJ)	.	16ee\JJ	.
!	!	!	!	!	!	!	!	!	!	!	!LO:LB:g=original	!	!	!	!	!
=220	=220	=220	=220	=220	=220	=220	=220	=220	=220	=220	=220	=220	=220	=220	=220	=220
.	.	.	.	.	8qqee/	.	.	.	.	.	.	.	.	.	.	.
8GG/L	.	4.ryy	8b\L	.	8dd\L	.	.	.	8b\L	.	8dd\L	.	8b\L	.	8dd\L	.
8GG/	.	.	8b\J	.	8dd\J	.	.	.	8b\	.	8dd\	.	8b\J	.	8dd\J	.
8C/J	.	.	(16cc\LL	.	(16ee\LL	.	.	.	8a\J	.	8cc\J	.	(16cc\LL	.	16ee\LL	.
.	.	.	16a\JJ)	.	16cc\JJ)	.	.	.	.	.	.	.	16a\JJ)	.	16cc\JJ	.
!	!	!	!	!	!	!	!	!	!	!	!	!	!LO:LB:g=original	!	!	!
=221	=221	=221	=221	=221	=221	=221	=221	=221	=221	=221	=221	=221	=221	=221	=221	=221
8D/L	.	4.ryy	8d/L	.	8b\L	.	.	.	8g\L	.	8b\L	.	8dd\L	.	8b\L	.
8D/	.	.	8d/J	.	8b\J	.	.	.	8g\J	.	8b\J	.	8dd\J	.	8b\J	.
8D/J	.	.	(16e/LL	.	(16cc\LL	.	.	.	16d/LL	.	16a\LL	.	(16ee\LL	.	16cc\LL	.
!LO:TX:a:t=P:problem=po tym takcie skreślony takt	!	!	!	!	!	!	!	!	!	!	!	!	!	!	!	!
.	.	.	16c/JJ)	.	16a\JJ)	.	.	.	16d/JJ	.	16a\JJ	.	16cc\JJ)	.	16a\JJ	.
!LO:LB:g=original	!	!	!	!	!	!	!	!	!	!	!	!	!	!	!	!
=222	=222	=222	=222	=222	=222	=222	=222	=222	=222	=222	=222	=222	=222	=222	=222	=222
.	.	.	8qqc/	.	8qqa/	.	.	.	.	.	.	.	8qqcc/	.	8qqa/	.
!	!	!	!	!	!	!	!LO:N:vis=00	!	!	!	!	!LO:DY:t=f.	!	!	!	!
8GG/L	f	4.ryy	4B/	.	4g/	.	1.r	.	8B/L	.	8g\L	f	4b\	.	4g/	.
!	!	!	!	!	!	!	!	!	!	!	!	!	!	!	!	!LO:DY:a:t=pia
8GG/	.	.	.	.	.	.	.	.	8G/	.	8g\	.	.	.	.	p
!	!	!	!	!	!	!LO:DY:a	!	!	!	!	!	!	!	!LO:DY:a	!	!
8GG/J	.	.	16d/LL	f	(16b/LL	f	.	.	8G/J	.	8g\J	.	(16dd\LL	f	16bb\LL	.
.	.	.	16A/JJ	.	16f#/JJ)	.	.	.	.	.	.	.	16a\JJ)	.	16ff#\JJ	.
=223	=223	=223	=223	=223	=223	=223	=223	=223	=223	=223	=223	=223	=223	=223	=223	=223
.	.	.	8qqA/	.	.	.	.	.	.	.	.	.	.	.	.	.
8GG/L	.	4.ryy	4B/	.	4g/	.	.	.	8G/L	.	8g\L	.	4b\	.	4gg\	.
8GG/	.	.	.	.	.	.	.	.	8G/	.	8g\	.	.	.	.	.
8GG/J	.	.	16g/LL	.	16b/LL	.	.	.	8G/J	.	8g\J	.	16gg\LL	.	16bb\LL	.
.	.	.	16b/JJ	.	16dd/JJ	.	.	.	.	.	.	.	16bb\JJ	.	16ddd\JJ	.
!	!	!	!	!	!LO:LB:g=original	!	!	!	!LO:LB:g=original	!	!	!	!	!	!	!
=224	=224	=224	=224	=224	=224	=224	=224	=224	=224	=224	=224	=224	=224	=224	=224	=224
.	.	.	8qqb/	.	.	.	.	.	.	.	.	.	8qqbb/	.	8qqddd/	.
8D\L	.	4.ryy	4a/	.	4cc\	.	.	.	8d/L	.	8a\L	.	4aa\	.	4ccc\	.
8D\	.	.	.	.	.	.	.	.	8d/	.	8a\	.	.	.	.	.
8D\J	.	.	(16c/LL	.	16a/LL	.	.	.	8d/J	.	8a\J	.	(16cc\LL	.	16aa\LL	.
.	.	.	16A/JJ)	.	16f#/JJ	.	.	.	.	.	.	.	16a\JJ)	.	16ff#\JJ	.
=225	=225	=225	=225	=225	=225	=225	=225	=225	=225	=225	=225	=225	=225	=225	=225	=225
8G\L	.	4.ryy	8B/L	.	8g/L	.	.	.	8B/L	.	8g\L	.	8b\L	.	8gg\L	.
16D\L	.	.	16d/L	.	16d/L	.	.	.	8g/	.	8b\	.	16dd\L	.	16dd\L	.
16C\	.	.	16c/	.	16c/	.	.	.	.	.	.	.	16cc\	.	16cc\	.
16BB\	.	.	16B/	.	16B/	.	.	.	8g/J	.	8b\J	.	16b\	.	16b\	.
16AA\JJ	.	.	16A/JJ	.	16A/JJ	.	.	.	.	.	.	.	16a\JJ	.	16a\JJ	.
=226	=226	=226	=226	=226	=226	=226	=226	=226	=226	=226	=226	=226	=226	=226	=226	=226
4GG/	.	4.ryy	4G/	.	4G/	.	4.ryy	.	4g\	.	4b\	.	4g/	.	4g/	.
!LO:TX:b:i:t=Da capo a(d) Segno	!	!	!LO:TX:b:Bi:t=Da Capo Ad Signu(m)	!	!LO:TX:b:Bi:t=Da Capo a Sig&colon;	!	!	!	!LO:TX:b:i:t=Da Capo a sygno	!	!LO:TX:b:i:t=Da Capo a Segno	!	!LO:TX:b:i:t=Dal Segno&colon;	!	!LO:TX:b:i:t=Dal Segno	!
8r	.	.	8r	.	8r	.	.	.	8r	.	8r	.	8r	.	8r	.
!LO:TX:a:t=[segno]:problem=znak segno na kresce taktowej	!	!	!LO:TX:a:t=[segno]:problem=znak segno na kresce taktowej	!	!LO:TX:a:t=[segno]:problem=znak segno na kresce taktowej	!	!	!	!LO:TX:a:t=[segno]:problem=znak segno na kresce taktowej	!	!LO:TX:a:t=[segno]:problem=znak segno na kresce taktowej	!	!LO:TX:a:t=[segno]:problem=znak segno na kresce taktowej	!	!LO:TX:a:t=[segno]:problem=znak segno na kresce taktowej	!
==	==	==	==	==	==	==	==	==	==	==	==	==	==	==	==	==
*-	*-	*-	*-	*-	*-	*-	*-	*-	*-	*-	*-	*-	*-	*-	*-	*-
!!!system-decoration: [g1][g2]s5[g3]s9
!!!RDF**kern: > = above
!!!RDF**dynam: p = "pia"
!!!RDF**dynam: f = "for"
!!!ENC: Marta Lawrence
!!!END: 2020-11-21
!!!ENC: Andrzej Gręziak
!!!END: 2020-05-27
!!!RDF**kern: | = vertical stroke
